; generated by Slic3r 1.2.9 on 2016-09-07 at 22:38:23

; external perimeters extrusion width = 0.40mm
; perimeters extrusion width = 0.67mm
; infill extrusion width = 0.67mm
; solid infill extrusion width = 0.67mm
; top infill extrusion width = 0.67mm
; support material extrusion width = 0.40mm

; external perimeters extrusion width = 0.40mm
; perimeters extrusion width = 0.67mm
; infill extrusion width = 0.67mm
; solid infill extrusion width = 0.67mm
; top infill extrusion width = 0.67mm
; support material extrusion width = 0.40mm

M107
M104 S250 ; set temperature
G28 ; home all axes
G1 Z5 F5000 ; lift nozzle

M109 S250 ; wait for temperature to be reached
G21 ; set units to millimeters
G90 ; use absolute coordinates
M82 ; use absolute distances for extrusion
G92 E0
G1 Z0.340 F6000.000
G1 E-1.00000 F2400.00000
G92 E0
G1 X65.474 Y52.112 F6000.000
G1 E1.00000 F2400.00000
G1 X66.175 Y51.232 E1.03898 F2400.000
G1 X66.411 Y51.000 E1.05045
G1 X68.750 Y49.267 E1.15130
G1 X71.470 Y48.232 E1.25215
G1 X73.858 Y47.960 E1.33541
G1 X106.227 Y47.960 E2.45689
G1 X109.110 Y48.358 E2.55774 F2400.000
G1 X111.778 Y49.523 E2.65859
G1 X114.752 Y52.233 E2.79799
G1 X114.904 Y52.437 E2.80681
G1 X116.311 Y54.985 E2.90766
G1 X117.020 Y58.805 E3.04227
G1 X117.020 Y91.167 E4.16350
G1 X116.622 Y94.050 E4.26435
G1 X115.457 Y96.718 E4.36520
G1 X113.828 Y98.766 E4.45587
G1 X113.591 Y98.998 E4.46734
G1 X111.254 Y100.732 E4.56819
G1 X108.533 Y101.768 E4.66904
G1 X106.142 Y102.040 E4.75242
G1 X73.774 Y102.040 E5.87389
G1 X70.890 Y101.642 E5.97474
G1 X68.222 Y100.477 E6.07559
G1 X65.248 Y97.767 E6.21500
G1 X65.096 Y97.563 E6.22382
G1 X63.689 Y95.015 E6.32467
G1 X62.980 Y91.195 E6.45928
G1 X62.980 Y58.833 E7.58051
G1 X63.378 Y55.950 E7.68136
G1 X64.543 Y53.282 E7.78221
G1 X65.437 Y52.159 E7.83194
G1 E6.83194 F2400.00000
G92 E0
G1 X68.312 Y55.009 F6000.000
G1 E1.00000 F2400.00000
G1 X70.403 Y52.961 E1.10141 F2400.000
G1 X71.857 Y52.432 E1.15502
G1 X72.319 Y52.154 E1.17368
G1 X72.562 Y52.154 E1.18210
G1 X72.672 Y52.135 E1.18598
G1 X72.879 Y52.060 E1.19361
G1 X74.119 Y52.154 E1.23668
G1 X104.572 Y52.154 E2.29179
G1 X104.769 Y52.089 E2.29897
G1 X104.889 Y51.999 E2.30418
G1 X105.938 Y52.151 E2.34092
G1 X106.612 Y52.154 E2.36425 F2400.000
G1 X107.652 Y52.399 E2.40129
G1 X109.882 Y52.722 E2.47934
G1 X111.871 Y55.385 E2.59451
G1 X112.324 Y56.253 E2.62843
G1 X112.669 Y57.292 E2.66634
G1 X112.826 Y58.258 E2.70026
G1 X112.826 Y93.392 E3.91754
G1 X111.298 Y95.510 E4.00802
G1 X111.033 Y96.030 E4.02824
G1 X110.889 Y96.118 E4.03408
G1 X110.797 Y96.204 E4.03845
G1 X110.523 Y96.583 E4.05465
G1 X109.652 Y96.882 E4.08654
G1 X108.091 Y97.846 E4.15011
G1 X72.979 Y97.846 E5.36665
G1 X71.596 Y97.518 E5.41589
G1 X70.174 Y96.806 E5.47098
G1 X69.084 Y95.894 E5.52021
G1 X66.947 Y93.032 E5.64398
G1 X67.188 Y91.368 E5.70222
G1 X67.174 Y91.193 E5.70830
G1 X67.174 Y59.882 E6.79313
G1 X67.098 Y59.573 E6.80416
G1 X67.174 Y58.572 E6.83894
G1 X67.174 Y57.156 E6.88799
G1 X67.437 Y56.782 E6.90384
G1 X68.224 Y55.096 E6.96832
G1 X68.269 Y55.051 E6.97052
G1 X68.761 Y55.467 F6000.000
G1 X70.753 Y53.516 E7.06713 F2400.000
G1 X72.138 Y53.012 E7.11821
G1 X72.501 Y52.796 E7.13284
G1 X72.785 Y52.776 E7.14272
G1 X72.968 Y52.710 E7.14945
G1 X74.094 Y52.796 E7.18858
G1 X104.785 Y52.795 E8.25192
G1 X104.982 Y52.730 E8.25911
G1 X105.060 Y52.672 E8.26249
G1 X105.892 Y52.792 E8.29164 F2400.000
G1 X106.537 Y52.796 E8.31397
G1 X107.532 Y53.030 E8.34940
G1 X109.527 Y53.319 E8.41924
G1 X111.327 Y55.728 E8.52342
G1 X111.732 Y56.504 E8.55377
G1 X112.045 Y57.445 E8.58811
G1 X112.185 Y58.310 E8.61846
G1 X112.185 Y93.185 E9.82678
G1 X110.748 Y95.177 E9.91187
G1 X110.541 Y95.580 E9.92757
G1 X110.351 Y95.726 E9.93586
G1 X110.125 Y96.040 E9.94929
G1 X109.379 Y96.297 E9.97660
G1 X107.909 Y97.205 E10.03646
G1 X73.053 Y97.204 E11.24411
G1 X71.816 Y96.912 E11.28816
G1 X70.528 Y96.266 E11.33807
G1 X69.553 Y95.450 E11.38212
G1 X67.619 Y92.861 E11.49409
G1 X67.836 Y91.363 E11.54655
G1 X67.815 Y91.142 E11.55423
G1 X67.815 Y59.791 E12.64044
G1 X67.746 Y59.507 E12.65059
G1 X67.815 Y58.597 E12.68220
G1 X67.815 Y57.364 E12.72493
G1 X67.993 Y57.108 E12.73570
G1 X68.733 Y55.520 E12.79642
G1 X69.287 Y55.849 F6000.000
G1 X71.102 Y54.071 E12.88444 F2400.000
G1 X72.419 Y53.591 E12.93299
G1 X72.683 Y53.437 E12.94358
G1 X72.898 Y53.417 E12.95108
G1 X73.057 Y53.359 E12.95693
G1 X74.069 Y53.437 E12.99211
G1 X104.998 Y53.437 E14.06368
G1 X105.231 Y53.344 E14.07237
G1 X105.846 Y53.433 E14.09391
G1 X106.462 Y53.437 E14.11526 F2400.000
G1 X107.412 Y53.660 E14.14908
G1 X109.172 Y53.915 E14.21070
G1 X110.782 Y56.070 E14.30390
G1 X111.140 Y56.755 E14.33068
G1 X111.420 Y57.598 E14.36145
G1 X111.544 Y58.361 E14.38823
G1 X111.544 Y92.978 E15.58759
G1 X110.198 Y94.843 E15.66729
G1 X110.049 Y95.130 E15.67847
G1 X109.906 Y95.247 E15.68488
G1 X109.726 Y95.497 E15.69556
G1 X109.106 Y95.712 E15.71829
G1 X107.727 Y96.563 E15.77444
G1 X73.128 Y96.563 E16.97319
G1 X72.036 Y96.305 E17.01206
G1 X70.882 Y95.727 E17.05678
G1 X70.022 Y95.007 E17.09565
G1 X68.292 Y92.690 E17.19583
G1 X68.485 Y91.357 E17.24249
G1 X68.456 Y91.090 E17.25179
G1 X68.456 Y59.700 E18.33937
G1 X68.394 Y59.440 E18.34864
G1 X68.456 Y58.622 E18.37707
G1 X68.456 Y57.571 E18.41348
G1 X68.548 Y57.434 E18.41918
G1 X69.262 Y55.903 E18.47771
G1 X69.819 Y56.225 F6000.000
G1 X71.452 Y54.626 E18.55690 F2400.000
G1 X72.700 Y54.171 E18.60291
G1 X72.865 Y54.078 E18.60948
G1 X73.011 Y54.058 E18.61461
G1 X73.146 Y54.009 E18.61957
G1 X74.045 Y54.078 E18.65080 F2400.000
G1 X105.211 Y54.078 E19.73061
G1 X105.397 Y54.016 E19.73739
G1 X105.846 Y54.078 E19.75311
G1 X106.387 Y54.078 E19.77187
G1 X107.293 Y54.290 E19.80409
G1 X108.818 Y54.511 E19.85749
G1 X110.238 Y56.412 E19.93970
G1 X110.548 Y57.006 E19.96291
G1 X110.796 Y57.751 E19.99012
G1 X110.903 Y58.413 E20.01332
G1 X110.903 Y92.771 E21.20372
G1 X109.648 Y94.510 E21.27803
G1 X109.558 Y94.680 E21.28469
G1 X109.461 Y94.769 E21.28925
G1 X109.327 Y94.954 E21.29717
G1 X108.833 Y95.127 E21.31531
G1 X107.545 Y95.922 E21.36774
G1 X73.203 Y95.922 E22.55760
G1 X72.257 Y95.699 E22.59129
G1 X71.236 Y95.187 E22.63083
G1 X70.491 Y94.563 E22.66452
G1 X68.964 Y92.519 E22.75290
G1 X69.133 Y91.352 E22.79377
G1 X69.097 Y91.039 E22.80469
G1 X69.097 Y59.609 E23.89364
G1 X69.042 Y59.373 E23.90203
G1 X69.097 Y58.646 E23.92728
G1 X69.097 Y57.778 E23.95737
G1 X69.794 Y56.279 E24.01462
G1 X70.351 Y56.601 F6000.000
G1 X71.801 Y55.181 E24.08497 F2400.000
G1 X73.235 Y54.659 E24.13782
G1 X73.995 Y54.718 E24.16424
G1 X105.424 Y54.719 E25.25314 F2400.000
G1 X105.531 Y54.683 E25.25706
G1 X105.800 Y54.719 E25.26646
G1 X106.313 Y54.719 E25.28422
G1 X107.173 Y54.921 E25.31483
G1 X108.463 Y55.108 E25.36001
G1 X109.694 Y56.755 E25.43125
G1 X109.956 Y57.257 E25.45088
G1 X110.171 Y57.905 E25.47452
G1 X110.262 Y58.464 E25.49415
G1 X110.262 Y92.564 E26.67559
G1 X108.929 Y94.411 E26.75453
G1 X108.560 Y94.543 E26.76808
G1 X107.363 Y95.281 E26.81681
G1 X73.278 Y95.281 E27.99777
G1 X72.477 Y95.092 E28.02627
G1 X71.591 Y94.648 E28.06063
G1 X70.960 Y94.120 E28.08914
G1 X69.637 Y92.348 E28.16574
G1 X69.782 Y91.347 E28.20080
G1 X69.738 Y90.987 E28.21334
G1 X69.738 Y59.518 E29.30366
G1 X69.690 Y59.306 E29.31118
G1 X69.738 Y58.671 E29.33325
G1 X69.738 Y57.985 E29.35703
G1 X69.810 Y57.762 E29.36513
G1 X70.326 Y56.656 E29.40742
G1 X70.883 Y56.978 F6000.000
G1 X72.151 Y55.736 E29.46893 F2400.000
G1 X73.324 Y55.309 E29.51217
G1 X73.995 Y55.360 E29.53550 F2400.000
G1 X105.665 Y55.350 E30.63277
G1 X106.238 Y55.360 E30.65261
G1 X106.982 Y55.541 E30.67915
G1 X108.108 Y55.704 E30.71859
G1 X109.149 Y57.097 E30.77884
G1 X109.364 Y57.508 E30.79490
G1 X109.546 Y58.058 E30.81497
G1 X109.620 Y58.516 E30.83103
G1 X109.620 Y92.356 E32.00351
G1 X108.530 Y93.868 E32.06810
G1 X108.287 Y93.958 E32.07707
G1 X107.181 Y94.640 E32.12208
G1 X73.353 Y94.640 E33.29415
G1 X72.697 Y94.485 E33.31747
G1 X71.945 Y94.108 E33.34665
G1 X71.428 Y93.676 E33.36997
G1 X70.309 Y92.177 E33.43478
G1 X70.430 Y91.341 E33.46405
G1 X70.380 Y90.936 E33.47821
G1 X70.380 Y59.427 E34.56989
G1 X70.338 Y59.240 E34.57654
G1 X70.379 Y58.720 E34.59458
G1 X70.380 Y58.180 E34.61331
G1 X70.431 Y58.039 E34.61852
G1 X70.440 Y57.928 E34.62238
G1 X70.857 Y57.032 E34.65660
G1 X71.414 Y57.354 F6000.000
G1 X72.500 Y56.291 E34.70927 F2400.000
G1 X73.412 Y55.959 E34.74290
G1 X73.946 Y56.000 E34.76143
G1 X106.163 Y56.001 E35.87766 F2400.000
G1 X106.788 Y56.160 E35.90000
G1 X107.754 Y56.300 E35.93383
G1 X108.605 Y57.440 E35.98309
G1 X108.772 Y57.759 E35.99558
G1 X108.922 Y58.211 E36.01208
G1 X108.979 Y58.567 E36.02458
G1 X108.979 Y92.149 E37.18810
G1 X108.131 Y93.325 E37.23833
G1 X108.014 Y93.373 E37.24272
G1 X106.999 Y93.999 E37.28402
G1 X73.427 Y93.999 E38.44719
G1 X72.918 Y93.879 E38.46533
G1 X72.299 Y93.569 E38.48932
G1 X71.897 Y93.232 E38.50746
G1 X70.982 Y92.007 E38.56048
G1 X71.079 Y91.336 E38.58396
G1 X71.021 Y90.884 E38.59973
G1 X71.021 Y59.336 E39.69279
G1 X70.987 Y59.173 E39.69856
G1 X71.020 Y58.745 E39.71342
G1 X71.021 Y58.366 E39.72657
G1 X71.056 Y58.268 E39.73019
G1 X71.070 Y58.093 E39.73626
G1 X71.389 Y57.409 E39.76241
G1 X71.946 Y57.731 F6000.000
G1 X72.850 Y56.845 E39.80625 F2400.000
G1 X73.501 Y56.608 E39.83027
G1 X73.946 Y56.642 E39.84570 F2400.000
G1 X106.088 Y56.642 E40.95934
G1 X106.452 Y56.728 E40.97230
G1 X106.593 Y56.780 E40.97750
G1 X107.399 Y56.897 E41.00573
G1 X108.060 Y57.782 E41.04401
G1 X108.180 Y58.010 E41.05293
G1 X108.297 Y58.364 E41.06586
G1 X108.338 Y58.619 E41.07478
G1 X108.338 Y91.942 E42.22934
G1 X107.718 Y92.803 E42.26610
G1 X106.818 Y93.358 E42.30275
G1 X73.502 Y93.358 E43.45703
G1 X73.138 Y93.272 E43.46998
G1 X72.653 Y93.029 E43.48879
G1 X72.366 Y92.789 E43.50175
G1 X71.654 Y91.836 E43.54298
G1 X71.733 Y91.288 E43.56214
G1 X71.662 Y90.833 E43.57811
G1 X71.662 Y59.245 E44.67254
G1 X71.635 Y59.106 E44.67743
G1 X71.662 Y58.552 E44.69667
G1 X71.682 Y58.497 E44.69870
G1 X71.700 Y58.258 E44.70698
G1 X71.921 Y57.785 E44.72507
G1 X72.478 Y58.107 F6000.000
G1 X73.199 Y57.400 E44.76006 F2400.000
G1 X73.590 Y57.258 E44.77447
G1 X73.896 Y57.282 E44.78511
G1 X106.013 Y57.283 E45.89786 F2400.000
G1 X106.232 Y57.334 E45.90564
G1 X106.398 Y57.400 E45.91184
G1 X107.045 Y57.493 E45.93446
G1 X107.516 Y58.124 E45.96175
G1 X107.588 Y58.261 E45.96711
G1 X107.673 Y58.518 E45.97646
G1 X107.697 Y58.670 E45.98182
G1 X107.697 Y91.735 E47.12742
G1 X107.334 Y92.239 E47.14894
G1 X107.299 Y92.250 E47.15020
G1 X107.100 Y92.431 E47.15951
G1 X106.636 Y92.717 E47.17842
G1 X73.577 Y92.717 E48.32380
G1 X73.359 Y92.666 E48.33157
G1 X73.007 Y92.489 E48.34520
G1 X72.835 Y92.345 E48.35298
G1 X72.326 Y91.665 E48.38241
G1 X72.389 Y91.230 E48.39763
G1 X72.376 Y91.081 E48.40281
G1 X72.303 Y90.781 E48.41351
G1 X72.303 Y59.154 E49.50930
G1 X72.283 Y59.039 E49.51332
G1 X72.330 Y58.424 E49.53471
G1 X72.453 Y58.162 E49.54474
G1 E48.54474 F2400.00000
G92 E0
G1 X73.304 Y91.902 F6000.000
G1 E1.00000 F2400.00000
G1 X72.999 Y91.494 E1.01764 F2400.000
G1 X73.046 Y91.172 E1.02892
G1 X73.032 Y91.023 E1.03410
G1 X72.944 Y90.730 E1.04471
G1 X72.944 Y59.063 E2.14188
G1 X72.931 Y58.973 E2.14502
G1 X72.960 Y58.589 E2.15835
G1 X73.010 Y58.484 E2.16238
G1 X73.549 Y57.955 E2.18854
G1 X73.679 Y57.908 E2.19334
G1 X73.896 Y57.924 E2.20088
G1 X105.939 Y57.924 E3.31105
G1 X106.204 Y58.019 E3.32082
G1 X106.690 Y58.089 E3.33783
G1 X106.972 Y58.467 E3.35414
G1 X107.056 Y58.722 E3.36345
G1 X107.056 Y91.528 E4.50009
G1 X106.935 Y91.696 E4.50726
G1 X106.845 Y91.726 E4.51054
G1 X106.653 Y91.893 E4.51937
G1 X106.608 Y91.981 E4.52278
G1 X106.454 Y92.076 E4.52909
G1 X73.652 Y92.076 E5.66557
G1 X73.579 Y92.059 E5.66817
G1 X73.350 Y91.940 E5.67711
G1 X73.621 Y91.195 F6000.000
G1 X73.774 Y91.399 E5.68161 F2400.000
G1 X74.183 Y91.399 E5.68885
G1 X73.621 Y90.646 E5.70545
G1 X73.621 Y90.098 E5.71515
G1 X74.593 Y91.399 E5.74385
G1 X75.003 Y91.399 E5.75109
G1 X73.621 Y89.549 E5.79190
G1 X73.621 Y89.001 E5.80159
G1 X75.412 Y91.399 E5.85450
G1 X75.822 Y91.399 E5.86174
G1 X73.621 Y88.452 E5.92675
G1 X73.621 Y87.904 E5.93645
G1 X76.232 Y91.399 E6.01356
G1 X76.642 Y91.399 E6.02080
G1 X73.621 Y87.355 E6.11001
G1 X73.621 Y86.807 E6.11970
G1 X77.051 Y91.399 E6.22102
G1 X77.461 Y91.399 E6.22826
G1 X73.621 Y86.258 E6.34167
G1 X73.621 Y85.710 E6.35137
G1 X77.871 Y91.399 E6.47688
G1 X78.281 Y91.399 E6.48413
G1 X73.621 Y85.161 E6.62174
G1 X73.621 Y84.613 E6.63144
G1 X78.690 Y91.399 E6.78116
G1 X79.100 Y91.399 E6.78840
G1 X73.621 Y84.064 E6.95022
G1 X73.621 Y83.516 E6.95992
G1 X79.510 Y91.399 E7.13384
G1 X79.920 Y91.399 E7.14108
G1 X73.621 Y82.967 E7.32710
G1 X73.621 Y82.419 E7.33680
G1 X80.329 Y91.399 E7.53492
G1 X80.739 Y91.399 E7.54217
G1 X73.621 Y81.870 E7.75239
G1 X73.621 Y81.322 E7.76209
G1 X81.149 Y91.399 E7.98442
G1 X81.558 Y91.399 E7.99166
G1 X73.621 Y80.773 E8.22609
G1 X73.621 Y80.225 E8.23578
G1 X81.968 Y91.399 E8.48231
G1 X82.378 Y91.399 E8.48956
G1 X73.621 Y79.676 E8.74819
G1 X73.621 Y79.128 E8.75788
G1 X82.788 Y91.399 E9.02862
G1 X83.197 Y91.399 E9.03586
G1 X73.621 Y78.579 E9.31870
G1 X73.621 Y78.031 E9.32839
G1 X83.607 Y91.399 E9.62333
G1 X84.017 Y91.399 E9.63057
G1 X73.621 Y77.482 E9.93761
G1 X73.621 Y76.934 E9.94730
G1 X84.427 Y91.399 E10.26644
G1 X84.836 Y91.399 E10.27369
G1 X73.621 Y76.385 E10.60493
G1 X73.621 Y75.837 E10.61462
G1 X85.246 Y91.399 E10.95797
G1 X85.656 Y91.399 E10.96521
G1 X73.621 Y75.288 E11.32065
G1 X73.621 Y74.740 E11.33035
G1 X86.065 Y91.399 E11.69790
G1 X86.475 Y91.399 E11.70514
G1 X73.621 Y74.191 E12.08479
G1 X73.621 Y73.643 E12.09448
G1 X86.885 Y91.399 E12.48623
G1 X87.295 Y91.399 E12.49347
G1 X73.621 Y73.094 E12.89732
G1 X73.621 Y72.546 E12.90702
G1 X87.704 Y91.399 E13.32297
G1 X88.114 Y91.399 E13.33021
G1 X73.621 Y71.997 E13.75827
G1 X73.621 Y71.449 E13.76796
G1 X88.524 Y91.399 E14.20812
G1 X88.934 Y91.399 E14.21536
G1 X73.621 Y70.900 E14.66762
G1 X73.621 Y70.352 E14.67731
G1 X89.343 Y91.399 E15.14167
G1 X89.753 Y91.399 E15.14891
G1 X73.621 Y69.803 E15.62537
G1 X73.621 Y69.255 E15.63507
G1 X90.163 Y91.399 E16.12363
G1 X90.573 Y91.399 E16.13087
G1 X73.621 Y68.706 E16.63154
G1 X73.621 Y68.158 E16.64123
G1 X90.982 Y91.399 E17.15400
G1 X91.392 Y91.399 E17.16124
G1 X73.621 Y67.609 E17.68611
G1 X73.621 Y67.061 E17.69580
G1 X91.802 Y91.399 E18.23277
G1 X92.211 Y91.399 E18.24001
G1 X73.621 Y66.512 E18.78908
G1 X73.621 Y65.964 E18.79878
G1 X92.621 Y91.399 E19.35995
G1 X93.031 Y91.399 E19.36719
G1 X73.621 Y65.415 E19.94046
G1 X73.621 Y64.867 E19.95016
G1 X93.441 Y91.399 E20.53553
G1 X93.850 Y91.399 E20.54277
G1 X73.621 Y64.318 E21.14025
G1 X73.621 Y63.770 E21.14994
G1 X94.260 Y91.399 E21.75952
G1 X94.670 Y91.399 E21.76676
G1 X73.621 Y63.221 E22.38844
G1 X73.621 Y62.673 E22.39814
G1 X95.080 Y91.399 E23.03192
G1 X95.489 Y91.399 E23.03916
G1 X73.621 Y62.124 E23.68504
G1 X73.621 Y61.576 E23.69474
G1 X95.899 Y91.399 E24.35272
G1 X96.309 Y91.399 E24.35996
G1 X73.621 Y61.027 E25.03005
G1 X73.621 Y60.479 E25.03974
G1 X96.718 Y91.399 E25.72193
G1 X97.128 Y91.399 E25.72917
G1 X73.621 Y59.930 E26.42346
G1 X73.621 Y59.382 E26.43315
G1 X97.538 Y91.399 E27.13954
G1 X97.948 Y91.399 E27.14678
G1 X73.621 Y58.833 E27.86528
G1 X73.858 Y58.601 E27.87113
G1 X98.357 Y91.399 E28.59473
G1 X98.767 Y91.399 E28.60198
G1 X74.268 Y58.601 E29.32558
G1 X74.677 Y58.601 E29.33282
G1 X99.177 Y91.399 E30.05643
G1 X99.587 Y91.399 E30.06367
G1 X75.087 Y58.601 E30.78728
G1 X75.497 Y58.601 E30.79452
G1 X99.996 Y91.399 E31.51812
G1 X100.406 Y91.399 E31.52536
G1 X75.906 Y58.601 E32.24897
G1 X76.316 Y58.601 E32.25621
G1 X100.816 Y91.399 E32.97982
G1 X101.226 Y91.399 E32.98706
G1 X76.726 Y58.601 E33.71066
G1 X77.136 Y58.601 E33.71790
G1 X101.635 Y91.399 E34.44151
G1 X102.045 Y91.399 E34.44875
G1 X77.545 Y58.601 E35.17236
G1 X77.955 Y58.601 E35.17960
G1 X102.455 Y91.399 E35.90320
G1 X102.864 Y91.399 E35.91045
G1 X78.365 Y58.601 E36.63405
G1 X78.775 Y58.601 E36.64129
G1 X103.274 Y91.399 E37.36490
G1 X103.684 Y91.399 E37.37214
G1 X79.184 Y58.601 E38.09574
G1 X79.594 Y58.601 E38.10299
G1 X104.094 Y91.399 E38.82659
G1 X104.503 Y91.399 E38.83383
G1 X80.004 Y58.601 E39.55744
G1 X80.413 Y58.601 E39.56468
