; generated by Slic3r 1.2.9 on 2016-09-07 at 23:42:28

; external perimeters extrusion width = 0.40mm
; perimeters extrusion width = 0.67mm
; infill extrusion width = 0.67mm
; solid infill extrusion width = 0.67mm
; top infill extrusion width = 0.67mm
; support material extrusion width = 0.40mm

M107
M104 S250 ; set temperature
G28 ; home all axes
G1 Z5 F5000 ; lift nozzle

M109 S250 ; wait for temperature to be reached
G21 ; set units to millimeters
G90 ; use absolute coordinates
M82 ; use absolute distances for extrusion
G92 E0
G1 Z0.340 F6000.000
G1 E-1.00000 F2400.00000
G92 E0
G1 X63.709 Y61.982 F6000.000
G1 E1.00000 F2400.00000
G1 X64.973 Y60.977 E1.05597 F2400.000
G1 X65.245 Y60.793 E1.06734
G1 X67.855 Y59.504 E1.16819
G1 X71.215 Y58.960 E1.28611
G1 X103.136 Y58.960 E2.39209
G1 X104.355 Y58.992 E2.43431 F2400.000
G1 X105.223 Y59.058 E2.46447
G1 X106.073 Y59.147 E2.49411
G1 X107.269 Y59.354 E2.53615
G1 X108.259 Y59.584 E2.57138
G1 X108.945 Y59.768 E2.59597
G1 X110.533 Y60.250 E2.65348
G1 X114.170 Y62.189 E2.79627
G1 X115.219 Y63.046 E2.84320
G1 X115.853 Y63.607 E2.87254
G1 X117.295 Y64.990 E2.94176
G1 X118.456 Y66.303 E3.00247
G1 X118.903 Y66.901 E3.02834
G1 X119.755 Y68.238 E3.08328
G1 X120.798 Y70.183 E3.15972
G1 X121.655 Y72.299 E3.23883
G1 X121.907 Y73.184 E3.27072
G1 X122.123 Y74.093 E3.30309
G1 X122.265 Y74.830 E3.32910
G1 X122.455 Y76.919 E3.40176
G1 X122.451 Y77.461 E3.42054
G1 X122.306 Y79.131 E3.47864
G1 X122.231 Y79.579 E3.49437
G1 X121.929 Y80.880 E3.54064
G1 X121.811 Y81.271 E3.55478
G1 X121.444 Y82.302 E3.59271
G1 X121.297 Y82.654 E3.60592
G1 X120.687 Y83.889 E3.65365
G1 X120.509 Y84.198 E3.66602
G1 X119.852 Y85.201 E3.70755
G1 X118.978 Y86.303 E3.75626
G1 X117.772 Y87.510 E3.81538
G1 X116.990 Y88.147 E3.85034
G1 X115.970 Y88.866 E3.89359
G1 X114.449 Y89.706 E3.95378
G1 X113.152 Y90.236 E4.00232
G1 X112.005 Y90.588 E4.04388
G1 X111.660 Y90.674 E4.05622
G1 X110.310 Y90.915 E4.10372
G1 X109.116 Y91.019 E4.14524
G1 X108.337 Y91.040 E4.17224
G1 X71.095 Y91.040 E5.46255
G1 X68.212 Y90.642 E5.56340
G1 X65.544 Y89.477 E5.66425
G1 X62.570 Y86.767 E5.80365
G1 X62.418 Y86.563 E5.81247
G1 X61.011 Y84.015 E5.91332
G1 X60.302 Y80.195 E6.04793
G1 X60.302 Y69.785 E6.40858
G1 X60.700 Y66.902 E6.50943
G1 X61.865 Y64.234 E6.61029
G1 X63.671 Y62.028 E6.70906
G1 E5.70906 F2400.00000
G92 E0
G1 X66.167 Y65.234 F6000.000
G1 E1.00000 F2400.00000
G1 X68.689 Y63.525 E1.10556 F2400.000
G1 X69.231 Y63.407 E1.12478
G1 X69.332 Y63.366 E1.12855
G1 X69.675 Y63.154 E1.14252
G1 X70.357 Y63.154 E1.16613
G1 X70.985 Y63.025 E1.18837
G1 X71.781 Y63.154 E1.21629
G1 X101.690 Y63.154 E2.25254
G1 X101.845 Y63.115 E2.25808
G1 X102.021 Y63.020 E2.26501
G1 X102.886 Y63.086 E2.29509
G1 X103.104 Y63.029 E2.30289 F2400.000
G1 X104.336 Y63.170 E2.34584
G1 X104.494 Y63.149 E2.35138
G1 X104.704 Y63.064 E2.35922
G1 X105.980 Y63.358 E2.40458
G1 X106.123 Y63.375 E2.40957
G1 X106.255 Y63.363 E2.41417
G1 X106.411 Y63.314 E2.41984
G1 X107.608 Y63.737 E2.46382
G1 X107.893 Y63.805 E2.47396
G1 X108.340 Y63.995 E2.49079
G1 X109.072 Y64.254 E2.51770
G1 X111.095 Y64.553 E2.58854
G1 X111.603 Y65.232 E2.61793
G1 X111.822 Y65.363 E2.62677
G1 X112.144 Y65.409 E2.63805
G1 X113.045 Y66.615 E2.69018
G1 X113.264 Y66.745 E2.69902
G1 X113.586 Y66.792 E2.71030
G1 X117.052 Y71.432 E2.91096
G1 X117.006 Y71.754 E2.92224
G1 X117.068 Y72.001 E2.93108
G1 X118.095 Y73.376 E2.99053
G1 X118.049 Y73.698 E3.00181
G1 X118.111 Y73.945 E3.01065
G1 X118.347 Y74.261 E3.02431
G1 X118.301 Y74.584 E3.03559
G1 X118.363 Y74.831 E3.04443
G1 X118.489 Y74.998 E3.05168
G1 X118.248 Y76.663 E3.10994
G1 X118.282 Y77.760 E3.14799
G1 X117.754 Y80.925 E3.25915
G1 X117.297 Y81.416 E3.28238
G1 X117.226 Y81.536 E3.28720
G1 X117.132 Y81.825 E3.29774
G1 X117.044 Y81.959 E3.30330
G1 X116.715 Y82.751 E3.33301
G1 X116.289 Y83.075 E3.35155
G1 X116.199 Y83.181 E3.35636
G1 X116.044 Y83.473 E3.36782
G1 X115.672 Y83.800 E3.38500
G1 X115.310 Y84.291 E3.40611
G1 X115.167 Y84.365 E3.41170
G1 X114.408 Y84.869 E3.44324
G1 X113.627 Y85.524 E3.47855
G1 X113.535 Y85.622 E3.48322
G1 X112.978 Y85.828 E3.50380
G1 X112.559 Y86.096 E3.52102
G1 X112.224 Y86.166 E3.53290
G1 X112.098 Y86.223 E3.53770
G1 X111.669 Y86.540 E3.55617
G1 X110.821 Y86.636 E3.58573
G1 X110.464 Y86.736 E3.59858
G1 X110.286 Y86.846 E3.60583
G1 X108.992 Y86.846 E3.65068
G1 X108.574 Y86.891 E3.66524
G1 X108.246 Y86.846 E3.67670
G1 X70.300 Y86.846 E4.99140
G1 X68.918 Y86.518 E5.04063
G1 X67.496 Y85.806 E5.09572
G1 X66.406 Y84.894 E5.14496
G1 X64.269 Y82.032 E5.26872
G1 X64.509 Y80.369 E5.32696
G1 X64.496 Y80.194 E5.33302
G1 X64.496 Y70.726 E5.66107
G1 X64.353 Y70.096 E5.68344
G1 X64.496 Y69.220 E5.71420
G1 X64.496 Y68.108 E5.75271
G1 X64.702 Y67.823 E5.76489
G1 X64.759 Y67.687 E5.77000
G1 X64.818 Y67.334 E5.78240
G1 X66.135 Y65.285 E5.86679
G1 X66.635 Y65.691 F6000.000
G1 X68.946 Y64.125 E5.96351 F2400.000
G1 X69.475 Y64.010 E5.98224
G1 X69.576 Y63.969 E5.98601
G1 X69.857 Y63.796 E5.99748
G1 X70.426 Y63.796 E6.01718
G1 X71.001 Y63.678 E6.03752
G1 X71.727 Y63.796 E6.06301
G1 X101.852 Y63.795 E7.10674
G1 X102.007 Y63.756 E7.11228
G1 X102.160 Y63.673 E7.11831
G1 X103.016 Y63.739 E7.14804 F2400.000
G1 X103.222 Y63.687 E7.15539
G1 X104.424 Y63.825 E7.19733
G1 X104.582 Y63.804 E7.20286
G1 X104.756 Y63.734 E7.20934
G1 X105.870 Y63.991 E7.24896
G1 X106.183 Y64.027 E7.25987
G1 X106.398 Y63.989 E7.26742
G1 X107.429 Y64.353 E7.30530
G1 X107.693 Y64.417 E7.31472
G1 X108.107 Y64.593 E7.33031
G1 X108.918 Y64.879 E7.36012
G1 X110.740 Y65.149 E7.42394
G1 X111.248 Y65.829 E7.45333
G1 X111.467 Y65.959 E7.46216
G1 X111.790 Y66.006 E7.47345
G1 X112.690 Y67.211 E7.52558
G1 X112.909 Y67.342 E7.53441
G1 X113.232 Y67.388 E7.54570
G1 X116.380 Y71.603 E7.72796
G1 X116.333 Y71.925 E7.73924
G1 X116.396 Y72.172 E7.74807
G1 X117.423 Y73.547 E7.80752
G1 X117.376 Y73.869 E7.81881
G1 X117.439 Y74.116 E7.82764
G1 X117.675 Y74.432 E7.84131
G1 X117.628 Y74.754 E7.85259
G1 X117.691 Y75.002 E7.86142
G1 X117.816 Y75.169 E7.86868
G1 X117.605 Y76.628 E7.91975
G1 X117.639 Y77.719 E7.95755
G1 X117.153 Y80.629 E8.05979
G1 X116.732 Y81.082 E8.08123
G1 X116.661 Y81.202 E8.08605
G1 X116.555 Y81.527 E8.09788
G1 X116.482 Y81.641 E8.10257
G1 X116.189 Y82.345 E8.12900
G1 X115.789 Y82.650 E8.14642
G1 X115.699 Y82.756 E8.15124
G1 X115.535 Y83.064 E8.16334
G1 X115.200 Y83.360 E8.17883
G1 X114.884 Y83.787 E8.19723
G1 X114.746 Y83.857 E8.20260
G1 X114.670 Y83.926 E8.20616
G1 X114.022 Y84.356 E8.23310
G1 X113.397 Y84.886 E8.26149
G1 X113.276 Y84.961 E8.26641
G1 X113.171 Y85.073 E8.27176
G1 X112.686 Y85.253 E8.28967
G1 X112.307 Y85.494 E8.30521
G1 X111.955 Y85.568 E8.31769
G1 X111.829 Y85.625 E8.32249
G1 X111.426 Y85.923 E8.33985
G1 X110.672 Y86.008 E8.36614
G1 X110.535 Y86.049 E8.37108
G1 X110.433 Y86.052 E8.37464
G1 X110.272 Y86.101 E8.38044
G1 X110.104 Y86.204 E8.38730
G1 X108.955 Y86.204 E8.42709
G1 X108.585 Y86.244 E8.44000
G1 X108.293 Y86.204 E8.45020
G1 X70.375 Y86.204 E9.76394
G1 X69.138 Y85.912 E9.80800
G1 X67.850 Y85.266 E9.85790
G1 X66.875 Y84.450 E9.90196
G1 X64.941 Y81.861 E10.01393
G1 X65.158 Y80.363 E10.06637
G1 X65.137 Y80.143 E10.07404
G1 X65.137 Y70.649 E10.40296
G1 X65.007 Y70.073 E10.42342
G1 X65.137 Y69.273 E10.45150
G1 X65.137 Y68.315 E10.48469
G1 X65.309 Y68.077 E10.49487
G1 X65.366 Y67.941 E10.49998
G1 X65.429 Y67.570 E10.51301
G1 X66.603 Y65.742 E10.58829
G1 X67.104 Y66.148 F6000.000
G1 X69.204 Y64.725 E10.67618 F2400.000
G1 X69.718 Y64.613 E10.69443
G1 X69.819 Y64.572 E10.69820
G1 X70.039 Y64.437 E10.70716
G1 X70.563 Y64.429 E10.72531
G1 X71.016 Y64.330 E10.74139
G1 X71.673 Y64.437 E10.76445
G1 X102.014 Y64.437 E11.81566
G1 X102.169 Y64.397 E11.82120
G1 X102.299 Y64.327 E11.82632
G1 X103.145 Y64.391 E11.85571
G1 X103.339 Y64.346 E11.86262 F2400.000
G1 X104.512 Y64.481 E11.90353
G1 X104.671 Y64.459 E11.90906
G1 X104.807 Y64.404 E11.91417
G1 X105.725 Y64.618 E11.94680
G1 X106.011 Y64.652 E11.95680
G1 X106.111 Y64.685 E11.96042
G1 X106.310 Y64.687 E11.96732
G1 X106.384 Y64.664 E11.97001
G1 X107.249 Y64.970 E12.00179
G1 X107.493 Y65.028 E12.01050
G1 X107.874 Y65.190 E12.02485
G1 X108.764 Y65.504 E12.05755
G1 X110.386 Y65.745 E12.11434
G1 X110.893 Y66.425 E12.14373
G1 X111.113 Y66.555 E12.15257
G1 X111.435 Y66.602 E12.16385
G1 X112.335 Y67.808 E12.21599
G1 X112.555 Y67.938 E12.22482
G1 X112.877 Y67.985 E12.23610
G1 X115.707 Y71.774 E12.39996
G1 X115.661 Y72.096 E12.41125
G1 X115.723 Y72.343 E12.42008
G1 X116.750 Y73.718 E12.47953
G1 X116.704 Y74.040 E12.49081
G1 X116.766 Y74.287 E12.49965
G1 X117.002 Y74.603 E12.51331
G1 X116.956 Y74.925 E12.52460
G1 X117.019 Y75.173 E12.53343
G1 X117.144 Y75.340 E12.54069
G1 X116.962 Y76.593 E12.58456
G1 X116.996 Y77.677 E12.62212
G1 X116.553 Y80.334 E12.71544
G1 X116.192 Y80.722 E12.73379
G1 X116.130 Y80.818 E12.73775
G1 X115.978 Y81.229 E12.75294
G1 X115.920 Y81.323 E12.75676
G1 X115.664 Y81.940 E12.77991
G1 X115.289 Y82.225 E12.79622
G1 X115.199 Y82.331 E12.80104
G1 X115.026 Y82.655 E12.81377
G1 X114.728 Y82.920 E12.82759
G1 X114.459 Y83.284 E12.84327
G1 X114.303 Y83.363 E12.84932
G1 X114.169 Y83.489 E12.85570
G1 X113.635 Y83.843 E12.87790
G1 X113.095 Y84.300 E12.90242
G1 X112.925 Y84.398 E12.90922
G1 X112.806 Y84.525 E12.91524
G1 X112.393 Y84.678 E12.93048
G1 X112.055 Y84.892 E12.94435
G1 X111.686 Y84.969 E12.95743
G1 X111.560 Y85.026 E12.96223
G1 X111.183 Y85.305 E12.97847
G1 X110.522 Y85.380 E13.00150
G1 X110.410 Y85.412 E13.00554
G1 X110.241 Y85.417 E13.01141
G1 X110.081 Y85.466 E13.01721
G1 X109.922 Y85.563 E13.02367
G1 X108.919 Y85.563 E13.05841
G1 X108.596 Y85.598 E13.06966
G1 X108.341 Y85.563 E13.07859
G1 X70.450 Y85.563 E14.39139
G1 X69.358 Y85.305 E14.43026
G1 X68.204 Y84.727 E14.47499
G1 X67.344 Y84.007 E14.51386
G1 X65.614 Y81.690 E14.61404
G1 X65.806 Y80.358 E14.66068
G1 X65.778 Y80.091 E14.66998
G1 X65.778 Y70.573 E14.99975
G1 X65.661 Y70.050 E15.01832
G1 X65.778 Y69.327 E15.04370
G1 X65.778 Y68.522 E15.07157
G1 X65.917 Y68.331 E15.07976
G1 X65.973 Y68.195 E15.08487
G1 X66.039 Y67.806 E15.09853
G1 X67.071 Y66.199 E15.16471
G1 X67.572 Y66.605 F6000.000
G1 X69.461 Y65.325 E15.24376 F2400.000
G1 X69.962 Y65.216 E15.26151
G1 X70.221 Y65.078 E15.27171
G1 X70.632 Y65.070 E15.28595
G1 X71.032 Y64.983 E15.30013
G1 X71.620 Y65.078 E15.32076
G1 X102.177 Y65.078 E16.37946
G1 X102.332 Y65.038 E16.38499
G1 X102.438 Y64.980 E16.38920
G1 X103.274 Y65.044 E16.41825 F2400.000
G1 X103.457 Y65.005 E16.42471
G1 X104.600 Y65.136 E16.46460
G1 X104.759 Y65.115 E16.47014
G1 X104.859 Y65.074 E16.47387
G1 X105.615 Y65.250 E16.50078
G1 X105.873 Y65.282 E16.50977
G1 X106.104 Y65.358 E16.51820
G1 X106.303 Y65.360 E16.52510
G1 X106.370 Y65.339 E16.52753
G1 X107.069 Y65.586 E16.55321
G1 X107.293 Y65.640 E16.56120
G1 X107.642 Y65.788 E16.57431
G1 X108.610 Y66.130 E16.60990
G1 X110.031 Y66.342 E16.65967
G1 X110.539 Y67.021 E16.68906
G1 X110.758 Y67.152 E16.69790
G1 X111.080 Y67.198 E16.70918
G1 X111.981 Y68.404 E16.76132
G1 X112.200 Y68.534 E16.77015
G1 X112.522 Y68.581 E16.78143
G1 X115.035 Y71.944 E16.92689
G1 X114.988 Y72.267 E16.93818
G1 X115.051 Y72.514 E16.94701
G1 X116.078 Y73.889 E17.00646
G1 X116.031 Y74.211 E17.01774
G1 X116.094 Y74.458 E17.02658
G1 X116.330 Y74.774 E17.04024
G1 X116.283 Y75.096 E17.05153
G1 X116.346 Y75.343 E17.06036
G1 X116.471 Y75.511 E17.06762
G1 X116.309 Y76.635 E17.10695
G1 X116.354 Y77.635 E17.14165
G1 X115.952 Y80.038 E17.22606
G1 X115.644 Y80.369 E17.24172
G1 X115.582 Y80.465 E17.24568
G1 X115.138 Y81.534 E17.28578
G1 X114.789 Y81.800 E17.30098
G1 X114.699 Y81.905 E17.30580
G1 X114.518 Y82.246 E17.31917
G1 X114.256 Y82.480 E17.33131
G1 X114.034 Y82.781 E17.34428
G1 X113.861 Y82.869 E17.35101
G1 X113.705 Y83.028 E17.35873
G1 X113.218 Y83.353 E17.37901
G1 X112.780 Y83.726 E17.39894
G1 X112.573 Y83.835 E17.40703
G1 X112.441 Y83.976 E17.41374
G1 X112.101 Y84.102 E17.42631
G1 X111.803 Y84.290 E17.43850
G1 X111.417 Y84.371 E17.45218
G1 X111.291 Y84.428 E17.45697
G1 X110.940 Y84.688 E17.47211
G1 X110.285 Y84.774 E17.49499
G1 X110.009 Y84.793 E17.50458
G1 X109.875 Y84.839 E17.50949
G1 X109.740 Y84.922 E17.51498
G1 X108.883 Y84.922 E17.54467
G1 X108.608 Y84.952 E17.55426
G1 X108.388 Y84.922 E17.56193
G1 X70.525 Y84.922 E18.87378
G1 X69.579 Y84.699 E18.90747
G1 X68.558 Y84.187 E18.94701
G1 X67.813 Y83.563 E18.98070
G1 X66.286 Y81.519 E19.06909
G1 X66.455 Y80.352 E19.10994
G1 X66.419 Y80.039 E19.12085
G1 X66.419 Y70.496 E19.45149
G1 X66.315 Y70.027 E19.46815
G1 X66.419 Y69.380 E19.49084
G1 X66.419 Y68.730 E19.51339
G1 X66.524 Y68.585 E19.51958
G1 X66.581 Y68.449 E19.52469
G1 X66.649 Y68.042 E19.53898
G1 X67.540 Y66.656 E19.59606
G1 X68.040 Y67.062 F6000.000
G1 X69.718 Y65.925 E19.66628 F2400.000
G1 X70.205 Y65.819 E19.68354
G1 X70.403 Y65.719 E19.69124
G1 X70.701 Y65.711 E19.70156
G1 X71.048 Y65.636 E19.71385
G1 X71.566 Y65.719 E19.73205
G1 X102.339 Y65.719 E20.79823
G1 X102.494 Y65.679 E20.80377
G1 X102.578 Y65.634 E20.80707
G1 X103.404 Y65.697 E20.83577
G1 X103.573 Y65.663 E20.84175 F2400.000
G1 X104.689 Y65.791 E20.88066
G1 X104.910 Y65.745 E20.88851
G1 X105.506 Y65.883 E20.90969
G1 X105.735 Y65.911 E20.91769
G1 X106.148 Y66.032 E20.93260
G1 X106.356 Y66.014 E20.93985
G1 X106.889 Y66.202 E20.95942
G1 X107.093 Y66.252 E20.96670
G1 X107.409 Y66.386 E20.97857
G1 X108.456 Y66.755 E21.01705
G1 X109.676 Y66.938 E21.05981
G1 X110.184 Y67.618 E21.08920
G1 X110.403 Y67.748 E21.09803
G1 X110.726 Y67.795 E21.10932
G1 X111.626 Y69.000 E21.16145
G1 X111.845 Y69.131 E21.17028
G1 X112.168 Y69.177 E21.18157
G1 X114.362 Y72.115 E21.30863
G1 X114.316 Y72.438 E21.31991
G1 X114.378 Y72.685 E21.32875
G1 X115.405 Y74.059 E21.38819
G1 X115.359 Y74.382 E21.39948
G1 X115.421 Y74.629 E21.40831
G1 X115.657 Y74.945 E21.42198
G1 X115.611 Y75.267 E21.43326
G1 X115.674 Y75.514 E21.44209
G1 X115.799 Y75.682 E21.44935
G1 X115.657 Y76.665 E21.48378
G1 X115.685 Y76.880 E21.49128
G1 X115.711 Y77.594 E21.51602
G1 X115.352 Y79.743 E21.59150
G1 X115.096 Y80.017 E21.60448
G1 X115.035 Y80.113 E21.60844
G1 X114.612 Y81.128 E21.64654
G1 X114.289 Y81.374 E21.66063
G1 X114.199 Y81.480 E21.66544
G1 X114.009 Y81.838 E21.67946
G1 X113.785 Y82.040 E21.68991
G1 X113.609 Y82.278 E21.70016
G1 X113.418 Y82.374 E21.70759
G1 X113.292 Y82.487 E21.71344
G1 X113.240 Y82.567 E21.71674
G1 X112.832 Y82.840 E21.73376
G1 X112.466 Y83.152 E21.75042
G1 X112.365 Y83.183 E21.75407
G1 X112.222 Y83.272 E21.75990
G1 X112.077 Y83.428 E21.76729
G1 X111.809 Y83.527 E21.77718
G1 X111.551 Y83.688 E21.78770
G1 X111.148 Y83.772 E21.80198
G1 X111.022 Y83.829 E21.80678
G1 X110.696 Y84.070 E21.82080
G1 X109.794 Y84.172 E21.85226
G1 X109.660 Y84.218 E21.85717
G1 X109.558 Y84.281 E21.86132
G1 X108.847 Y84.281 E21.88597
G1 X108.619 Y84.305 E21.89390
G1 X108.436 Y84.281 E21.90031
G1 X70.600 Y84.281 E23.21121
G1 X69.799 Y84.092 E23.23972
G1 X68.912 Y83.648 E23.27407
G1 X68.282 Y83.120 E23.30258
G1 X66.958 Y81.348 E23.37918
G1 X67.103 Y80.347 E23.41423
G1 X67.060 Y79.988 E23.42676
G1 X67.060 Y70.420 E23.75827
G1 X66.969 Y70.004 E23.77303
G1 X67.056 Y69.487 E23.79117
G1 X67.060 Y68.937 E23.81025
G1 X67.131 Y68.838 E23.81445
G1 X67.188 Y68.702 E23.81956
G1 X67.260 Y68.278 E23.83447
G1 X68.008 Y67.113 E23.88245
G1 X68.509 Y67.519 F6000.000
G1 X69.975 Y66.525 E23.94383 F2400.000
G1 X70.449 Y66.422 E23.96061
G1 X70.585 Y66.360 E23.96581
G1 X70.770 Y66.352 E23.97223
G1 X71.063 Y66.288 E23.98262
G1 X71.513 Y66.360 E23.99839
G1 X102.501 Y66.360 E25.07205
G1 X102.717 Y66.288 E25.07993
G1 X103.533 Y66.350 E25.10829 F2400.000
G1 X103.679 Y66.321 E25.11344
G1 X104.777 Y66.447 E25.15173
G1 X104.962 Y66.415 E25.15824
G1 X105.397 Y66.516 E25.17370
G1 X105.597 Y66.541 E25.18069
G1 X106.171 Y66.696 E25.20130
G1 X106.343 Y66.689 E25.20725
G1 X106.710 Y66.819 E25.22072
G1 X106.894 Y66.863 E25.22728
G1 X107.176 Y66.983 E25.23792
G1 X108.302 Y67.381 E25.27929
G1 X109.322 Y67.535 E25.31502
G1 X109.829 Y68.214 E25.34441
G1 X110.049 Y68.344 E25.35325
G1 X110.371 Y68.391 E25.36453
G1 X111.271 Y69.597 E25.41666
G1 X111.491 Y69.727 E25.42550
G1 X111.813 Y69.774 E25.43678
G1 X113.690 Y72.286 E25.54544
G1 X113.643 Y72.609 E25.55672
