; generated by Slic3r 1.2.9 on 2016-09-07 at 23:21:28

; external perimeters extrusion width = 0.40mm
; perimeters extrusion width = 0.67mm
; infill extrusion width = 0.67mm
; solid infill extrusion width = 0.67mm
; top infill extrusion width = 0.67mm
; support material extrusion width = 0.40mm

M107
M104 S250 ; set temperature
G28 ; home all axes
G1 Z5 F5000 ; lift nozzle

M109 S250 ; wait for temperature to be reached
G21 ; set units to millimeters
G90 ; use absolute coordinates
M82 ; use absolute distances for extrusion
G92 E0
G1 Z0.340 F6000.000
G1 E-1.00000 F2400.00000
G92 E0
G1 X52.157 Y55.938 F6000.000
G1 E1.00000 F2400.00000
G1 X54.945 Y54.074 E1.11619 F2400.000
G1 X55.250 Y53.934 E1.12780
G1 X58.036 Y53.091 E1.22865
G1 X59.696 Y52.960 E1.28637
G1 X110.426 Y52.960 E3.04398
G1 X111.028 Y52.969 E3.06484 F2400.000
G1 X112.110 Y53.035 E3.10240
G1 X113.439 Y53.224 E3.14892
G1 X113.923 Y53.325 E3.16606
G1 X115.061 Y53.628 E3.20687
G1 X115.603 Y53.804 E3.22659
G1 X117.092 Y54.419 E3.28241
G1 X117.748 Y54.750 E3.30788
G1 X119.785 Y56.090 E3.39234
G1 X120.876 Y57.003 E3.44162
G1 X121.572 Y57.639 E3.47431
G1 X128.116 Y64.185 E3.79500
G1 X129.838 Y65.942 E3.88024
G1 X130.762 Y67.021 E3.92946
G1 X131.193 Y67.597 E3.95439
G1 X132.426 Y69.721 E4.03948
G1 X132.996 Y71.032 E4.08901
G1 X133.740 Y73.560 E4.18030
G1 X133.854 Y74.261 E4.20491
G1 X133.985 Y75.556 E4.24999
G1 X134.008 Y76.134 E4.27004
G1 X134.017 Y82.033 E4.47442
G1 X133.963 Y83.211 E4.51530
G1 X133.848 Y84.240 E4.55116
G1 X133.775 Y84.690 E4.56695
G1 X133.518 Y85.886 E4.60934
G1 X133.024 Y87.421 E4.66520
G1 X132.587 Y88.444 E4.70373
G1 X131.946 Y89.659 E4.75133
G1 X131.762 Y89.960 E4.76355
G1 X131.337 Y90.610 E4.79046
G1 X130.587 Y91.599 E4.83348
G1 X129.874 Y92.403 E4.87073
G1 X128.900 Y93.333 E4.91738
G1 X128.649 Y93.545 E4.92875
G1 X128.168 Y93.925 E4.94999
G1 X127.494 Y94.414 E4.97886
G1 X126.365 Y95.125 E5.02506
G1 X125.053 Y95.778 E5.07584
G1 X124.557 Y95.982 E5.09442
G1 X124.241 Y96.106 E5.10620
G1 X122.837 Y96.548 E5.15719
G1 X121.767 Y96.784 E5.19516
G1 X120.485 Y96.964 E5.24000
G1 X119.591 Y97.022 E5.27103
G1 X119.023 Y97.039 E5.29072
G1 X100.458 Y97.315 E5.93402
G1 X78.054 Y97.315 E6.71025
G1 X76.872 Y97.249 E6.75128
G1 X75.315 Y97.075 E6.80556
G1 X72.493 Y96.359 E6.90641
G1 X70.487 Y95.282 E6.98530
G1 X53.535 Y83.680 E7.69703
G1 X51.019 Y81.267 E7.81781
G1 X50.867 Y81.063 E7.82663
G1 X49.460 Y78.515 E7.92748
G1 X48.751 Y74.695 E8.06209
G1 X48.751 Y63.741 E8.44159
G1 X49.149 Y60.858 E8.54244
G1 X50.313 Y58.190 E8.64329
G1 X52.119 Y55.984 E8.74206
G1 E7.74206 F2400.00000
G92 E0
G1 X55.247 Y58.325 F6000.000
G1 E1.00000 F2400.00000
G1 X56.587 Y57.871 E1.04902 F2400.000
G1 X57.747 Y57.154 E1.09626
G1 X108.428 Y57.154 E2.85217
G1 X108.551 Y57.120 E2.85659
G1 X109.826 Y57.143 E2.90080
G1 X109.958 Y57.117 E2.90545
G1 X110.486 Y56.895 E2.92531
G1 X113.676 Y57.557 E3.03817
G1 X114.302 Y57.802 E3.06148 F2400.000
G1 X115.955 Y58.041 E3.11935
G1 X116.070 Y58.195 E3.12601
G1 X116.290 Y58.325 E3.13485
G1 X116.612 Y58.372 E3.14613
G1 X117.161 Y59.108 E3.17794
G1 X117.381 Y59.238 E3.18678
G1 X117.703 Y59.285 E3.19806
G1 X118.778 Y60.725 E3.26033
G1 X118.998 Y60.855 E3.26917
G1 X119.320 Y60.902 E3.28044
G1 X120.395 Y62.342 E3.34272
G1 X120.615 Y62.472 E3.35156
G1 X120.937 Y62.519 E3.36283
G1 X122.012 Y63.959 E3.42511
G1 X122.232 Y64.089 E3.43394
G1 X122.554 Y64.136 E3.44522
G1 X123.630 Y65.576 E3.50750
G1 X123.849 Y65.706 E3.51633
G1 X124.171 Y65.753 E3.52761
G1 X125.351 Y67.333 E3.59595
G1 X125.571 Y67.464 E3.60479
G1 X125.893 Y67.510 E3.61607
G1 X129.342 Y72.128 E3.81578
G1 X129.244 Y72.805 E3.83949
G1 X129.267 Y72.980 E3.84559
G1 X129.331 Y73.131 E3.85129
G1 X129.535 Y73.833 E3.87661
G1 X130.100 Y77.291 E3.99801
G1 X129.863 Y77.721 E4.01502
G1 X129.822 Y77.879 E4.02064
G1 X129.822 Y81.601 E4.14960
G1 X129.848 Y81.841 E4.15796
G1 X129.822 Y82.247 E4.17207
G1 X129.822 Y83.710 E4.22276
G1 X129.775 Y83.776 E4.22556
G1 X129.714 Y83.946 E4.23184
G1 X129.640 Y85.105 E4.27206
G1 X129.330 Y85.495 E4.28932
G1 X129.268 Y85.621 E4.29420
G1 X128.973 Y86.850 E4.33798
G1 X128.545 Y87.264 E4.35862
G1 X128.475 Y87.365 E4.36287
G1 X128.014 Y88.396 E4.40202
G1 X127.587 Y88.708 E4.42033
G1 X127.509 Y88.789 E4.42423
G1 X126.925 Y89.661 E4.46059
G1 X126.696 Y89.790 E4.46971
G1 X126.340 Y90.056 E4.48507
G1 X125.756 Y90.681 E4.51472
G1 X125.396 Y90.832 E4.52826
G1 X124.973 Y91.079 E4.54522
G1 X124.746 Y91.247 E4.55502
G1 X124.515 Y91.492 E4.56669
G1 X123.751 Y91.797 E4.59519
G1 X123.125 Y92.164 E4.62032
G1 X123.014 Y92.252 E4.62523
G1 X122.091 Y92.444 E4.65789
G1 X121.600 Y92.636 E4.67616
G1 X121.381 Y92.771 E4.68507
G1 X120.566 Y92.796 E4.71331
G1 X120.404 Y92.846 E4.71920
G1 X120.120 Y92.846 E4.72904
G1 X119.983 Y92.867 E4.73384
G1 X119.712 Y92.846 E4.74326
G1 X118.241 Y92.868 E4.79422
G1 X118.103 Y92.846 E4.79908
G1 X106.200 Y92.846 E5.21147
G1 X106.003 Y92.911 E5.21866
G1 X105.883 Y93.001 E5.22386
G1 X105.027 Y92.879 E5.25382
G1 X103.907 Y92.858 E5.29261
G1 X103.776 Y92.883 E5.29726
G1 X103.242 Y93.107 E5.31732
G1 X102.438 Y92.938 E5.34577
G1 X102.168 Y92.998 E5.35535
G1 X101.795 Y93.276 E5.37147
G1 X100.700 Y93.121 E5.40980
G1 X77.259 Y93.121 E6.22196
G1 X75.876 Y92.794 E6.27120
G1 X74.455 Y92.081 E6.32629
G1 X73.365 Y91.169 E6.37552
G1 X69.687 Y86.246 E6.58843
G1 X70.050 Y83.741 E6.67612
G1 X70.049 Y83.644 E6.67950
G1 X69.915 Y82.814 E6.70863
G1 X69.915 Y81.721 E6.74649
G1 X69.539 Y81.346 E6.76489
G1 X58.749 Y81.346 E7.13874
G1 X57.366 Y81.018 E7.18797
G1 X55.945 Y80.306 E7.24306
G1 X54.855 Y79.394 E7.29230
G1 X52.717 Y76.532 E7.41606
G1 X52.958 Y74.869 E7.47429
G1 X52.945 Y74.694 E7.48035
G1 X52.945 Y61.516 E7.93693
G1 X55.212 Y58.374 E8.07119
G1 X55.646 Y58.868 F6000.000
G1 X56.860 Y58.455 E8.11563 F2400.000
G1 X57.929 Y57.796 E8.15915
G1 X108.605 Y57.796 E9.91490
G1 X108.717 Y57.764 E9.91893
G1 X109.951 Y57.786 E9.96168
G1 X110.083 Y57.761 E9.96633
G1 X110.551 Y57.563 E9.98397
G1 X113.488 Y58.173 E10.08789 F2400.000
G1 X114.133 Y58.425 E10.11188
G1 X115.601 Y58.637 E10.16326
G1 X115.716 Y58.791 E10.16992
G1 X115.935 Y58.922 E10.17875
G1 X116.257 Y58.968 E10.19003
G1 X116.807 Y59.704 E10.22185
G1 X117.026 Y59.834 E10.23069
G1 X117.348 Y59.881 E10.24196
G1 X118.424 Y61.321 E10.30424
G1 X118.643 Y61.451 E10.31307
G1 X118.965 Y61.498 E10.32435
G1 X120.041 Y62.938 E10.38663
G1 X120.260 Y63.068 E10.39546
G1 X120.582 Y63.115 E10.40674
G1 X121.658 Y64.555 E10.46902
G1 X121.877 Y64.686 E10.47785
G1 X122.199 Y64.732 E10.48913
G1 X123.275 Y66.172 E10.55140
G1 X123.494 Y66.303 E10.56024
G1 X123.816 Y66.349 E10.57152
G1 X124.997 Y67.930 E10.63986
G1 X125.216 Y68.060 E10.64870
G1 X125.538 Y68.107 E10.65997
G1 X128.670 Y72.299 E10.84129
G1 X128.584 Y72.891 E10.86201
G1 X128.607 Y73.066 E10.86811
G1 X128.726 Y73.347 E10.87869
G1 X128.908 Y73.975 E10.90135
G1 X129.431 Y77.176 E11.01374
G1 X129.222 Y77.557 E11.02879
G1 X129.181 Y77.714 E11.03441
G1 X129.181 Y81.637 E11.17033
G1 X129.204 Y81.857 E11.17798
G1 X129.181 Y82.227 E11.19084
G1 X129.181 Y83.503 E11.23506
G1 X129.086 Y83.721 E11.24331
G1 X129.014 Y84.863 E11.28295
G1 X128.740 Y85.207 E11.29816
G1 X128.678 Y85.333 E11.30303
G1 X128.394 Y86.519 E11.34529
G1 X128.031 Y86.870 E11.36280
G1 X127.953 Y86.974 E11.36729
G1 X127.498 Y87.979 E11.40550
G1 X127.152 Y88.231 E11.42034
G1 X127.040 Y88.344 E11.42586
G1 X126.479 Y89.174 E11.46057
G1 X126.348 Y89.250 E11.46582
G1 X125.909 Y89.578 E11.48477
G1 X125.382 Y90.141 E11.51153
G1 X125.111 Y90.255 E11.52171
G1 X124.618 Y90.544 E11.54150
G1 X124.313 Y90.770 E11.55467
G1 X124.141 Y90.950 E11.56329
G1 X123.470 Y91.218 E11.58833
G1 X122.787 Y91.604 E11.61551
G1 X122.725 Y91.656 E11.61831
G1 X121.909 Y91.827 E11.64719
G1 X121.346 Y92.030 E11.66793
G1 X121.182 Y92.136 E11.67469
G1 X120.375 Y92.161 E11.70266
G1 X120.230 Y92.204 E11.70793
G1 X119.945 Y92.220 E11.71782
G1 X119.738 Y92.204 E11.72500
G1 X118.299 Y92.225 E11.77488
G1 X118.170 Y92.205 E11.77939
G1 X105.987 Y92.204 E12.20149
G1 X105.790 Y92.270 E12.20868
G1 X105.712 Y92.328 E12.21206
G1 X105.079 Y92.239 E12.23421
G1 X103.784 Y92.214 E12.27908
G1 X103.652 Y92.240 E12.28373
G1 X103.178 Y92.439 E12.30156
G1 X102.286 Y92.251 E12.33312
G1 X102.017 Y92.311 E12.34269
G1 X101.625 Y92.604 E12.35965
G1 X100.746 Y92.480 E12.39039
G1 X77.334 Y92.480 E13.20155
G1 X76.096 Y92.187 E13.24561
G1 X74.809 Y91.542 E13.29551
G1 X73.834 Y90.726 E13.33957
G1 X70.360 Y86.075 E13.54068
G1 X70.699 Y83.736 E13.62257
G1 X70.698 Y83.638 E13.62596
G1 X70.556 Y82.762 E13.65670
G1 X70.556 Y81.080 E13.71499
G1 X70.180 Y80.704 E13.73339
G1 X58.824 Y80.704 E14.12685
G1 X57.587 Y80.412 E14.17091
G1 X56.299 Y79.766 E14.22081
G1 X55.324 Y78.950 E14.26487
G1 X53.390 Y76.361 E14.37684
G1 X53.607 Y74.863 E14.42928
G1 X53.586 Y74.643 E14.43695
G1 X53.586 Y61.723 E14.88457
G1 X55.611 Y58.917 E15.00448
G1 X56.045 Y59.411 F6000.000
G1 X57.134 Y59.040 E15.04433 F2400.000
G1 X58.111 Y58.437 E15.08414
G1 X108.782 Y58.437 E16.83973
G1 X108.883 Y58.409 E16.84337
G1 X110.075 Y58.430 E16.88466
G1 X110.207 Y58.404 E16.88931
G1 X110.617 Y58.231 E16.90472
G1 X113.301 Y58.789 E16.99971
G1 X113.964 Y59.048 E17.02439 F2400.000
G1 X115.246 Y59.234 E17.06926
G1 X115.361 Y59.388 E17.07593
G1 X115.580 Y59.518 E17.08476
G1 X115.903 Y59.565 E17.09604
G1 X116.452 Y60.300 E17.12786
G1 X116.671 Y60.431 E17.13669
G1 X116.993 Y60.477 E17.14797
G1 X118.069 Y61.917 E17.21024
G1 X118.288 Y62.048 E17.21908
G1 X118.610 Y62.094 E17.23036
G1 X119.686 Y63.535 E17.29263
G1 X119.905 Y63.665 E17.30147
G1 X120.227 Y63.712 E17.31275
G1 X121.303 Y65.152 E17.37502
G1 X121.522 Y65.282 E17.38386
G1 X121.844 Y65.329 E17.39514
G1 X122.920 Y66.769 E17.45741
G1 X123.139 Y66.899 E17.46625
G1 X123.462 Y66.946 E17.47752
G1 X124.642 Y68.526 E17.54587
G1 X124.861 Y68.656 E17.55470
G1 X125.183 Y68.703 E17.56598
G1 X127.997 Y72.470 E17.72890
G1 X127.924 Y72.977 E17.74664
G1 X127.947 Y73.151 E17.75273
G1 X128.121 Y73.562 E17.76819
G1 X128.282 Y74.116 E17.78819
G1 X128.763 Y77.061 E17.89156
G1 X128.581 Y77.392 E17.90465
G1 X128.540 Y77.549 E17.91027
G1 X128.540 Y81.673 E18.05316
G1 X128.561 Y81.872 E18.06011
G1 X128.540 Y82.207 E18.07171
G1 X128.540 Y83.296 E18.10945
G1 X128.458 Y83.496 E18.11695
G1 X128.387 Y84.622 E18.15602
G1 X128.150 Y84.919 E18.16918
G1 X128.088 Y85.045 E18.17405
G1 X127.814 Y86.188 E18.21478
G1 X127.536 Y86.457 E18.22818
G1 X127.390 Y86.663 E18.23692
G1 X126.983 Y87.561 E18.27110
G1 X126.723 Y87.750 E18.28222
G1 X126.535 Y87.946 E18.29164
G1 X126.033 Y88.688 E18.32267
G1 X125.895 Y88.764 E18.32811
G1 X125.787 Y88.869 E18.33336
G1 X125.478 Y89.099 E18.34669
G1 X125.008 Y89.602 E18.37054
G1 X124.826 Y89.679 E18.37737
G1 X124.263 Y90.010 E18.39999
G1 X123.880 Y90.294 E18.41653
G1 X123.767 Y90.409 E18.42210
G1 X123.189 Y90.640 E18.44369
G1 X122.712 Y90.920 E18.46285
G1 X122.507 Y91.001 E18.47048
G1 X122.436 Y91.061 E18.47370
G1 X121.727 Y91.210 E18.49881
G1 X121.392 Y91.341 E18.51128
G1 X121.304 Y91.345 E18.51432
G1 X121.142 Y91.398 E18.52022
G1 X120.983 Y91.501 E18.52677
G1 X120.184 Y91.525 E18.55446
G1 X120.057 Y91.563 E18.55906
G1 X119.906 Y91.574 E18.56431
G1 X118.948 Y91.563 E18.59750
G1 X118.356 Y91.582 E18.61803
G1 X118.237 Y91.563 E18.62219
G1 X105.774 Y91.563 E19.05401
G1 X105.541 Y91.656 E19.06269
G1 X104.991 Y91.576 E19.08195
G1 X104.899 Y91.595 E19.08520
G1 X103.661 Y91.571 E19.12811
G1 X103.529 Y91.596 E19.13275
G1 X103.114 Y91.770 E19.14835
G1 X102.135 Y91.564 E19.18301
G1 X101.865 Y91.624 E19.19258
G1 X101.454 Y91.931 E19.21038
G1 X100.632 Y91.812 E19.23914
G1 X100.504 Y91.839 E19.24366
G1 X77.408 Y91.839 E20.04386
G1 X76.317 Y91.581 E20.08273
G1 X75.163 Y91.002 E20.12746
G1 X74.302 Y90.282 E20.16633
G1 X71.032 Y85.904 E20.35565
G1 X71.354 Y83.683 E20.43340
G1 X71.197 Y82.711 E20.46754
G1 X71.197 Y80.439 E20.54625
G1 X70.821 Y80.063 E20.56464
G1 X58.899 Y80.063 E20.97773
G1 X57.807 Y79.805 E21.01660
G1 X56.653 Y79.227 E21.06133
G1 X55.793 Y78.507 E21.10020
G1 X54.062 Y76.190 E21.20038
G1 X54.255 Y74.858 E21.24702
G1 X54.227 Y74.591 E21.25631
G1 X54.227 Y61.930 E21.69496
G1 X56.010 Y59.460 E21.80052
G1 X56.443 Y59.954 F6000.000
G1 X57.407 Y59.625 E21.83579 F2400.000
G1 X58.293 Y59.078 E21.87189
G1 X108.960 Y59.078 E23.62733
G1 X109.050 Y59.053 E23.63057
G1 X110.200 Y59.073 E23.67041
G1 X110.331 Y59.047 E23.67505
G1 X110.682 Y58.899 E23.68824
G1 X113.114 Y59.404 E23.77429 F2400.000
G1 X113.795 Y59.671 E23.79965
G1 X114.891 Y59.830 E23.83803
G1 X115.007 Y59.984 E23.84469
G1 X115.226 Y60.114 E23.85353
G1 X115.548 Y60.161 E23.86480
G1 X116.097 Y60.897 E23.89662
G1 X116.317 Y61.027 E23.90546
G1 X116.639 Y61.074 E23.91674
G1 X117.714 Y62.514 E23.97901
G1 X117.934 Y62.644 E23.98785
G1 X118.256 Y62.691 E23.99912
G1 X119.331 Y64.131 E24.06140
G1 X119.551 Y64.261 E24.07023
G1 X119.873 Y64.308 E24.08151
G1 X120.948 Y65.748 E24.14379
G1 X121.168 Y65.878 E24.15262
G1 X121.490 Y65.925 E24.16390
G1 X122.566 Y67.365 E24.22618
G1 X122.785 Y67.495 E24.23501
G1 X123.107 Y67.542 E24.24629
G1 X124.287 Y69.122 E24.31463
G1 X124.507 Y69.253 E24.32347
G1 X124.829 Y69.299 E24.33475
G1 X127.325 Y72.641 E24.47927
G1 X127.264 Y73.062 E24.49402
G1 X127.287 Y73.237 E24.50011
G1 X127.516 Y73.777 E24.52045
G1 X127.655 Y74.258 E24.53778
G1 X128.095 Y76.946 E24.63215
G1 X127.940 Y77.227 E24.64327
G1 X127.899 Y77.384 E24.64889
G1 X127.899 Y81.709 E24.79875
G1 X127.918 Y81.888 E24.80499
G1 X127.899 Y82.186 E24.81533
G1 X127.899 Y83.089 E24.84660
G1 X127.830 Y83.271 E24.85336
G1 X127.760 Y84.380 E24.89185
G1 X127.560 Y84.631 E24.90296
G1 X127.498 Y84.757 E24.90783
G1 X127.234 Y85.857 E24.94703
G1 X126.964 Y86.119 E24.96006
G1 X126.878 Y86.262 E24.96586
G1 X126.467 Y87.144 E24.99956
G1 X126.248 Y87.311 E25.00911
G1 X126.030 Y87.548 E25.02027
G1 X125.587 Y88.202 E25.04762
G1 X125.434 Y88.286 E25.05370
G1 X125.290 Y88.440 E25.06098
G1 X125.003 Y88.661 E25.07352
G1 X124.633 Y89.062 E25.09243
G1 X123.908 Y89.475 E25.12133
G1 X123.393 Y89.867 E25.14375
G1 X122.953 Y90.040 E25.16015
G1 X122.489 Y90.307 E25.17869
G1 X122.384 Y90.325 E25.18238
G1 X122.227 Y90.397 E25.18839
G1 X122.147 Y90.465 E25.19202
G1 X121.598 Y90.577 E25.21143
G1 X121.256 Y90.706 E25.22411
G1 X121.100 Y90.713 E25.22951
G1 X120.938 Y90.766 E25.23540
G1 X120.784 Y90.865 E25.24175
G1 X120.093 Y90.887 E25.26571
G1 X119.871 Y90.928 E25.27353
G1 X105.561 Y90.922 E25.76934
G1 X105.375 Y90.984 E25.77612
G1 X104.926 Y90.922 E25.79184
G1 X104.781 Y90.922 E25.79684
G1 X104.684 Y90.949 E25.80035
G1 X103.538 Y90.927 E25.84007
G1 X103.406 Y90.953 E25.84471
G1 X103.050 Y91.102 E25.85807
G1 X101.983 Y90.877 E25.89585
G1 X101.714 Y90.937 E25.90542
G1 X101.283 Y91.259 E25.92406
G1 X100.494 Y91.145 E25.95168
G1 X100.261 Y91.198 E25.95996
G1 X77.483 Y91.198 E26.74913
G1 X76.537 Y90.974 E26.78282
G1 X75.517 Y90.463 E26.82236
G1 X74.771 Y89.838 E26.85604
G1 X71.705 Y85.733 E27.03358
G1 X72.010 Y83.625 E27.10738
G1 X71.997 Y83.476 E27.11256
G1 X71.945 Y83.320 E27.11825
G1 X71.838 Y82.659 E27.14146
G1 X71.838 Y79.798 E27.24059
G1 X71.463 Y79.422 E27.25899
G1 X58.974 Y79.422 E27.69170
G1 X58.027 Y79.199 E27.72538
G1 X57.007 Y78.687 E27.76492
G1 X56.261 Y78.063 E27.79861
G1 X54.735 Y76.019 E27.88700
G1 X54.904 Y74.853 E27.92785
G1 X54.868 Y74.540 E27.93876
G1 X54.868 Y62.138 E28.36845
G1 X56.408 Y60.003 E28.45966
G1 X56.842 Y60.497 F6000.000
G1 X57.680 Y60.210 E28.49034 F2400.000
G1 X58.475 Y59.719 E28.52273
G1 X109.137 Y59.719 E30.27801
G1 X109.216 Y59.697 E30.28085
G1 X110.324 Y59.716 E30.31923
G1 X110.456 Y59.691 E30.32388
G1 X110.747 Y59.568 E30.33485
G1 X112.926 Y60.020 E30.41196
G1 X113.626 Y60.295 E30.43800 F2400.000
G1 X114.537 Y60.426 E30.46988
G1 X114.652 Y60.580 E30.47654
G1 X114.871 Y60.711 E30.48538
G1 X115.193 Y60.757 E30.49666
G1 X115.743 Y61.493 E30.52848
G1 X115.962 Y61.624 E30.53731
G1 X116.284 Y61.670 E30.54859
G1 X117.360 Y63.110 E30.61086
G1 X117.579 Y63.241 E30.61970
G1 X117.901 Y63.287 E30.63098
G1 X118.977 Y64.727 E30.69325
G1 X119.196 Y64.858 E30.70209
G1 X119.518 Y64.904 E30.71337
G1 X120.594 Y66.344 E30.77564
G1 X120.813 Y66.475 E30.78448
