; generated by Slic3r 1.2.9 on 2016-09-05 at 20:31:16

; external perimeters extrusion width = 0.40mm
; perimeters extrusion width = 0.67mm
; infill extrusion width = 0.67mm
; solid infill extrusion width = 0.67mm
; top infill extrusion width = 0.67mm
; support material extrusion width = 0.40mm

M107
M104 S250 ; set temperature
G28 ; home all axes
G1 Z5 F5000 ; lift nozzle

M109 S250 ; wait for temperature to be reached
G21 ; set units to millimeters
G90 ; use absolute coordinates
M82 ; use absolute distances for extrusion
G92 E0
G1 Z0.340 F6000.000
G1 E-1.00000 F2400.00000
G92 E0
G1 X28.724 Y28.724 F6000.000
G1 E1.00000 F2400.00000
G1 X31.074 Y26.936 E1.10229 F2400.000
G1 X32.645 Y26.216 E1.16217
G1 X32.967 Y26.100 E1.17403
G1 X36.599 Y25.460 E1.30183
G1 X143.383 Y25.460 E5.00156
G1 X146.267 Y25.858 E5.10241
G1 X148.934 Y27.023 E5.20326 F2400.000
G1 X150.586 Y28.269 E5.27495
G1 X152.215 Y29.779 E5.35189
G1 X157.066 Y34.630 E5.58960
G1 X158.067 Y35.786 E5.64257
G1 X159.904 Y38.246 E5.74894
G1 X161.311 Y40.794 E5.84979
G1 X162.020 Y44.614 E5.98440
G1 X162.020 Y105.957 E8.10973
G1 X161.622 Y108.840 E8.21058
G1 X160.933 Y110.643 E8.27744
G1 X160.770 Y110.973 E8.29020
G1 X158.741 Y113.812 E8.41109
G1 X151.247 Y121.306 E8.77829
G1 X148.926 Y123.063 E8.87914
G1 X147.359 Y123.782 E8.93888
G1 X147.037 Y123.899 E8.95074
G1 X143.401 Y124.540 E9.07868
G1 X36.617 Y124.540 E12.77840
G1 X33.734 Y124.142 E12.87925
G1 X31.066 Y122.977 E12.98011
G1 X29.415 Y121.732 E13.05176
G1 X27.786 Y120.222 E13.12871
G1 X21.318 Y113.753 E13.44565
G1 X20.317 Y112.597 E13.49863
G1 X20.096 Y112.301 E13.51142
G1 X18.689 Y109.753 E13.61227
G1 X17.980 Y105.933 E13.74688
G1 X17.980 Y44.043 E15.89119
G1 X18.378 Y41.159 E15.99204
G1 X19.069 Y39.353 E16.05905
G1 X19.232 Y39.022 E16.07181
G1 X21.259 Y36.188 E16.19254
G1 X28.681 Y28.766 E16.55621
G1 E15.55621 F2400.00000
G92 E0
G1 X31.741 Y31.571 F6000.000
G1 E1.00000 F2400.00000
G1 X32.550 Y30.713 E1.04084 F2400.000
G1 X34.450 Y30.023 E1.11088
G1 X35.060 Y29.654 E1.13557
G1 X35.855 Y29.654 E1.16312
G1 X37.392 Y29.610 E1.21642
G1 X37.589 Y29.654 E1.22341
G1 X141.728 Y29.654 E4.83151
G1 X141.925 Y29.589 E4.83869
G1 X142.045 Y29.499 E4.84390
G1 X143.095 Y29.651 E4.88064
G1 X143.769 Y29.654 E4.90399 F2400.000
G1 X144.811 Y29.900 E4.94106
G1 X147.038 Y30.222 E5.01906
G1 X147.804 Y31.247 E5.06339
G1 X148.023 Y31.378 E5.07222
G1 X148.345 Y31.424 E5.08350
G1 X149.421 Y32.864 E5.14578
G1 X149.640 Y32.995 E5.15462
G1 X149.963 Y33.041 E5.16589
G1 X151.038 Y34.482 E5.22817
G1 X151.258 Y34.612 E5.23701
G1 X151.580 Y34.659 E5.24829
G1 X152.655 Y36.099 E5.31057
G1 X152.875 Y36.229 E5.31940
G1 X153.197 Y36.276 E5.33068
G1 X156.871 Y41.195 E5.54340
G1 X157.324 Y42.062 E5.57732
G1 X157.669 Y43.101 E5.61524
G1 X157.826 Y44.067 E5.64915
G1 X157.826 Y105.643 E7.78256
G1 X157.885 Y106.297 E7.80531
G1 X157.826 Y106.650 E7.81772
G1 X157.826 Y107.634 E7.85183
G1 X157.536 Y108.044 E7.86922
G1 X156.216 Y110.734 E7.97303
G1 X155.135 Y111.487 E8.01867
G1 X148.528 Y118.093 E8.34239
G1 X148.468 Y118.177 E8.34596
G1 X148.291 Y118.530 E8.35963
G1 X147.744 Y118.878 E8.38209
G1 X147.228 Y119.393 E8.40735
G1 X146.354 Y119.725 E8.43977
G1 X145.350 Y120.346 E8.48066
G1 X35.822 Y120.346 E12.27545
G1 X34.439 Y120.018 E12.32468
G1 X33.018 Y119.306 E12.37977
G1 X32.320 Y118.722 E12.41129
G1 X32.157 Y118.649 E12.41748
G1 X31.655 Y118.576 E12.43505
G1 X30.580 Y117.136 E12.49732
G1 X30.360 Y117.006 E12.50616
G1 X30.038 Y116.959 E12.51744
G1 X28.962 Y115.519 E12.57972
G1 X28.743 Y115.389 E12.58855
G1 X28.421 Y115.342 E12.59983
G1 X27.345 Y113.902 E12.66211
G1 X27.126 Y113.772 E12.67095
G1 X26.804 Y113.725 E12.68223
G1 X25.728 Y112.285 E12.74451
G1 X25.509 Y112.155 E12.75334
G1 X25.187 Y112.108 E12.76462
G1 X21.947 Y107.770 E12.95220
G1 X21.993 Y107.448 E12.96348
G1 X21.943 Y107.249 E12.97059
G1 X22.188 Y105.559 E13.02976
G1 X22.174 Y105.385 E13.03582
G1 X22.174 Y76.871 E14.02375
G1 X23.434 Y75.124 E14.09836
G1 X23.431 Y74.704 E14.11291
G1 X23.129 Y74.300 E14.13040
G1 X22.676 Y73.432 E14.16431
G1 X22.331 Y72.394 E14.20223
G1 X22.174 Y71.427 E14.23614
G1 X22.174 Y41.818 E15.26203
G1 X23.139 Y40.481 E15.31915
G1 X23.354 Y40.024 E15.33664
G1 X23.779 Y39.594 E15.35757
G1 X24.477 Y38.626 E15.39891
G1 X24.816 Y38.514 E15.41130
G1 X24.943 Y38.435 E15.41648
G1 X30.610 Y32.768 E15.69415
G1 X31.699 Y31.614 E15.74913
G1 E14.74913 F2400.00000
G92 E0
G1 X24.229 Y75.118 F6000.000
G1 E1.00000 F2400.00000
G1 X24.226 Y74.698 E1.01456 F2400.000
G1 X23.673 Y73.958 E1.04656
G1 X23.268 Y73.181 E1.07690
G1 X22.955 Y72.240 E1.11125
G1 X22.815 Y71.376 E1.14160
G1 X22.815 Y42.025 E2.15852
G1 X23.696 Y40.804 E2.21066
G1 X23.889 Y40.396 E2.22633
G1 X24.268 Y40.011 E2.24503
G1 X24.875 Y39.169 E2.28099
G1 X25.162 Y39.074 E2.29146
G1 X25.290 Y38.996 E2.29664
G1 X31.070 Y33.215 E2.57988
G1 X32.911 Y31.264 E2.67283
G1 X34.730 Y30.603 E2.73988
G1 X35.242 Y30.295 E2.76055
G1 X35.864 Y30.295 E2.78211
G1 X37.308 Y30.253 E2.83216
G1 X37.496 Y30.296 E2.83882
G1 X141.941 Y30.296 E6.45754
G1 X142.138 Y30.230 E6.46473
G1 X142.216 Y30.172 E6.46812
G1 X143.049 Y30.292 E6.49726
G1 X143.694 Y30.296 E6.51962
G1 X144.691 Y30.530 E6.55508
G1 X146.684 Y30.819 E6.62486
G1 X147.449 Y31.844 E6.66919
G1 X147.669 Y31.974 E6.67802
G1 X147.991 Y32.021 E6.68930
G1 X149.067 Y33.461 E6.75158
G1 X149.286 Y33.591 E6.76042
G1 X149.608 Y33.638 E6.77170
G1 X150.684 Y35.078 E6.83398
G1 X150.903 Y35.208 E6.84281
G1 X151.225 Y35.255 E6.85409
G1 X152.301 Y36.695 E6.91637
G1 X152.520 Y36.825 E6.92521
G1 X152.842 Y36.872 E6.93648
G1 X156.327 Y41.537 E7.13822
G1 X156.732 Y42.313 E7.16857
G1 X157.045 Y43.254 E7.20291
G1 X157.185 Y44.119 E7.23326
G1 X157.185 Y105.672 E9.36591
G1 X157.239 Y106.268 E9.38663
G1 X157.185 Y106.592 E9.39800
G1 X157.185 Y107.427 E9.42695
G1 X156.984 Y107.713 E9.43905
G1 X155.714 Y110.302 E9.53894
G1 X154.723 Y110.992 E9.58080
G1 X148.001 Y117.713 E9.91013
G1 X147.799 Y118.080 E9.92463
G1 X147.344 Y118.371 E9.94338
G1 X146.874 Y118.841 E9.96639
G1 X146.071 Y119.147 E9.99616
G1 X145.168 Y119.705 E10.03294
G1 X35.897 Y119.704 E13.81883
G1 X34.660 Y119.412 E13.86289
G1 X33.372 Y118.766 E13.91279
G1 X32.592 Y118.114 E13.94803
G1 X32.429 Y118.041 E13.95421
G1 X32.010 Y117.980 E13.96888
G1 X30.934 Y116.540 E14.03116
G1 X30.715 Y116.410 E14.04000
G1 X30.393 Y116.363 E14.05128
G1 X29.317 Y114.923 E14.11356
G1 X29.098 Y114.793 E14.12239
G1 X28.776 Y114.746 E14.13367
G1 X27.700 Y113.306 E14.19595
G1 X27.481 Y113.175 E14.20478
G1 X27.159 Y113.129 E14.21606
G1 X26.083 Y111.689 E14.27834
G1 X25.864 Y111.558 E14.28718
G1 X25.541 Y111.512 E14.29846
G1 X22.619 Y107.599 E14.46764
G1 X22.666 Y107.277 E14.47892
G1 X22.615 Y107.079 E14.48603
G1 X22.836 Y105.554 E14.53940
G1 X22.815 Y105.333 E14.54708
G1 X22.815 Y77.078 E15.52605
G1 X24.194 Y75.166 E15.60770
G1 X25.006 Y74.990 F6000.000
G1 X24.974 Y74.627 E15.62031 F2400.000
G1 X24.218 Y73.615 E15.66409
G1 X23.860 Y72.930 E15.69086
G1 X23.580 Y72.087 E15.72164
G1 X23.456 Y71.324 E15.74841
G1 X23.456 Y42.232 E16.75638
G1 X24.253 Y41.128 E16.80353
G1 X24.424 Y40.767 E16.81738
G1 X24.758 Y40.428 E16.83387
G1 X25.274 Y39.713 E16.86443
G1 X25.508 Y39.635 E16.87298
G1 X25.636 Y39.556 E16.87816
G1 X31.645 Y33.547 E17.17259
G1 X33.273 Y31.815 E17.25498
G1 X35.011 Y31.183 E17.31904
G1 X35.424 Y30.937 E17.33569
G1 X37.223 Y30.897 E17.39806
G1 X37.402 Y30.937 E17.40439
G1 X142.154 Y30.937 E21.03374
G1 X142.387 Y30.844 E21.04243
G1 X143.003 Y30.933 E21.06397
G1 X143.619 Y30.937 E21.08534
G1 X144.571 Y31.160 E21.11919
G1 X146.329 Y31.415 E21.18075
G1 X147.095 Y32.440 E21.22508
G1 X147.314 Y32.570 E21.23392
G1 X147.636 Y32.617 E21.24520
G1 X148.712 Y34.057 E21.30748
G1 X148.931 Y34.187 E21.31631
G1 X149.253 Y34.234 E21.32759
G1 X150.329 Y35.674 E21.38987
G1 X150.548 Y35.805 E21.39871
G1 X150.870 Y35.851 E21.40999
G1 X151.946 Y37.291 E21.47226
G1 X152.165 Y37.422 E21.48110
G1 X152.487 Y37.468 E21.49238
G1 X155.782 Y41.879 E21.68313
G1 X156.140 Y42.564 E21.70991
G1 X156.420 Y43.407 E21.74069
G1 X156.544 Y44.170 E21.76746
G1 X156.544 Y105.702 E23.89936
G1 X156.592 Y106.239 E23.91804
G1 X156.544 Y106.533 E23.92836
G1 X156.544 Y107.220 E23.95216
G1 X156.410 Y107.405 E23.96007
G1 X155.213 Y109.869 E24.05498
G1 X154.311 Y110.497 E24.09306
G1 X147.475 Y117.333 E24.42801
G1 X147.308 Y117.630 E24.43980
G1 X146.943 Y117.865 E24.45484
G1 X146.519 Y118.289 E24.47561
G1 X145.788 Y118.568 E24.50273
G1 X144.986 Y119.063 E24.53539
G1 X35.972 Y119.063 E28.31239
G1 X34.880 Y118.805 E28.35126
G1 X33.726 Y118.227 E28.39598
G1 X32.864 Y117.505 E28.43493
G1 X32.701 Y117.432 E28.44111
G1 X32.365 Y117.384 E28.45289
G1 X31.289 Y115.944 E28.51517
G1 X31.070 Y115.813 E28.52400
G1 X30.748 Y115.767 E28.53528
G1 X29.672 Y114.327 E28.59756
G1 X29.453 Y114.196 E28.60640
G1 X29.130 Y114.150 E28.61768
G1 X28.055 Y112.709 E28.67996
G1 X27.835 Y112.579 E28.68879
G1 X27.513 Y112.532 E28.70007
G1 X26.438 Y111.092 E28.76235
G1 X26.218 Y110.962 E28.77119
G1 X25.896 Y110.915 E28.78246
G1 X23.292 Y107.429 E28.93325
G1 X23.338 Y107.106 E28.94453
G1 X23.288 Y106.908 E28.95164
G1 X23.485 Y105.549 E28.99921
G1 X23.456 Y105.282 E29.00850
G1 X23.456 Y77.285 E29.97852
G1 X24.749 Y75.493 E30.05505
G1 X24.979 Y75.044 E30.07256
G1 X25.432 Y75.570 F6000.000
G1 X25.563 Y75.460 E30.07849 F2400.000
G1 X25.820 Y75.105 E30.09368
G1 X25.816 Y74.684 E30.10823
G1 X24.762 Y73.273 E30.16928
G1 X24.452 Y72.679 E30.19248
G1 X24.204 Y71.934 E30.21969
G1 X24.097 Y71.273 E30.24290
G1 X24.097 Y42.439 E31.24190
G1 X24.809 Y41.452 E31.28406
G1 X24.959 Y41.139 E31.29610
G1 X25.248 Y40.845 E31.31037
G1 X25.673 Y40.256 E31.33554
G1 X25.854 Y40.195 E31.34216
G1 X25.982 Y40.117 E31.34735
G1 X32.212 Y33.886 E31.65265
G1 X33.635 Y32.365 E31.72480
G1 X35.292 Y31.763 E31.78587
G1 X35.606 Y31.578 E31.79850
G1 X37.139 Y31.541 E31.85163
G1 X37.308 Y31.578 E31.85763
G1 X142.367 Y31.578 E35.49761
G1 X142.553 Y31.516 E35.50439
G1 X143.003 Y31.578 E35.52011 F2400.000
G1 X143.545 Y31.578 E35.53889
G1 X144.451 Y31.791 E35.57114
G1 X145.974 Y32.011 E35.62448
G1 X146.740 Y33.036 E35.66881
G1 X146.959 Y33.167 E35.67765
G1 X147.281 Y33.213 E35.68893
G1 X148.357 Y34.653 E35.75121
G1 X148.576 Y34.784 E35.76004
G1 X148.899 Y34.830 E35.77132
G1 X149.974 Y36.271 E35.83360
G1 X150.194 Y36.401 E35.84244
G1 X150.516 Y36.448 E35.85372
G1 X151.591 Y37.888 E35.91600
G1 X151.811 Y38.018 E35.92483
G1 X152.133 Y38.065 E35.93611
G1 X155.238 Y42.222 E36.11588
G1 X155.548 Y42.815 E36.13908
G1 X155.796 Y43.561 E36.16629
G1 X155.903 Y44.222 E36.18950
G1 X155.903 Y105.732 E38.32064
G1 X155.946 Y106.211 E38.33729
G1 X155.903 Y106.475 E38.34657
G1 X155.903 Y107.013 E38.36521
G1 X155.806 Y107.147 E38.37095
G1 X155.738 Y107.342 E38.37810
G1 X154.711 Y109.437 E38.45892
G1 X153.899 Y110.003 E38.49322
G1 X146.948 Y116.953 E38.83378
G1 X146.816 Y117.180 E38.84286
G1 X146.543 Y117.359 E38.85419
G1 X146.165 Y117.737 E38.87272
G1 X145.505 Y117.990 E38.89719
G1 X144.804 Y118.422 E38.92574
G1 X36.046 Y118.422 E42.69384
G1 X35.100 Y118.199 E42.72753
G1 X34.080 Y117.687 E42.76707
G1 X33.334 Y117.063 E42.80076
G1 X33.261 Y116.964 E42.80503
G1 X33.041 Y116.834 E42.81386
G1 X32.719 Y116.787 E42.82514
G1 X31.644 Y115.347 E42.88742
G1 X31.424 Y115.217 E42.89626
G1 X31.102 Y115.170 E42.90753
G1 X30.026 Y113.730 E42.96981
G1 X29.807 Y113.600 E42.97865
G1 X29.485 Y113.553 E42.98993
G1 X28.409 Y112.113 E43.05221
G1 X28.190 Y111.983 E43.06104
G1 X27.868 Y111.936 E43.07232
G1 X26.792 Y110.496 E43.13460
G1 X26.573 Y110.366 E43.14344
G1 X26.251 Y110.319 E43.15472
G1 X23.964 Y107.258 E43.28710
G1 X24.011 Y106.936 E43.29838
G1 X23.960 Y106.737 E43.30549
G1 X24.133 Y105.543 E43.34727
G1 X24.097 Y105.230 E43.35818
G1 X24.097 Y77.492 E44.31923
G1 X25.299 Y75.827 E44.39038
G1 X25.405 Y75.624 E44.39831
G1 X25.926 Y76.016 F6000.000
G1 X26.071 Y75.852 E44.40591 F2400.000
G1 X26.374 Y75.742 E44.41707
G1 X26.725 Y75.525 E44.43135
G1 X26.830 Y74.971 E44.45091
G1 X25.306 Y72.931 E44.53914
G1 X25.044 Y72.428 E44.55877
G1 X24.829 Y71.781 E44.58241
G1 X24.738 Y71.221 E44.60204
G1 X24.738 Y42.646 E45.59209
G1 X25.366 Y41.776 E45.62926
G1 X25.494 Y41.510 E45.63948
G1 X25.737 Y41.262 E45.65153
G1 X26.071 Y40.799 E45.67131
G1 X26.200 Y40.756 E45.67601
G1 X26.328 Y40.677 E45.68120
G1 X32.780 Y34.225 E45.99736
G1 X32.812 Y34.171 E45.99951
G1 X33.997 Y32.916 E46.05933
G1 X35.573 Y32.343 E46.11741
G1 X35.787 Y32.219 E46.12602
G1 X37.054 Y32.185 E46.16991
G1 X37.214 Y32.219 E46.17559
G1 X142.580 Y32.219 E49.82619
G1 X142.687 Y32.183 E49.83011
G1 X142.910 Y32.215 E49.83791
G1 X143.470 Y32.219 E49.85729 F2400.000
G1 X144.331 Y32.421 E49.88793
G1 X145.620 Y32.608 E49.93306
G1 X146.385 Y33.633 E49.97739
G1 X146.605 Y33.763 E49.98623
G1 X146.927 Y33.810 E49.99751
G1 X148.003 Y35.250 E50.05978
G1 X148.222 Y35.380 E50.06862
G1 X148.544 Y35.427 E50.07990
G1 X149.620 Y36.867 E50.14218
G1 X149.839 Y36.997 E50.15101
G1 X150.161 Y37.044 E50.16229
G1 X151.237 Y38.484 E50.22457
G1 X151.456 Y38.614 E50.23341
G1 X151.778 Y38.661 E50.24469
G1 X154.694 Y42.564 E50.41347
G1 X154.956 Y43.066 E50.43311
G1 X155.171 Y43.714 E50.45674
G1 X155.262 Y44.273 E50.47638
G1 X155.262 Y105.762 E52.60677
G1 X155.299 Y106.182 E52.62138
G1 X155.262 Y106.417 E52.62961
G1 X155.262 Y106.806 E52.64311
G1 X155.201 Y106.890 E52.64668
G1 X155.145 Y107.021 E52.65162
G1 X155.123 Y107.139 E52.65580
G1 X154.209 Y109.004 E52.72775
G1 X153.487 Y109.508 E52.75827
G1 X146.422 Y116.574 E53.10445
G1 X146.325 Y116.730 E53.11083
G1 X146.142 Y116.853 E53.11845
G1 X145.810 Y117.185 E53.13473
G1 X145.222 Y117.411 E53.15656
G1 X144.622 Y117.781 E53.18099
G1 X36.121 Y117.781 E56.94020
G1 X35.321 Y117.592 E56.96870
G1 X34.434 Y117.148 E57.00306
G1 X33.803 Y116.620 E57.03157
G1 X33.615 Y116.368 E57.04244
G1 X33.396 Y116.238 E57.05128
G1 X33.074 Y116.191 E57.06256
G1 X31.998 Y114.751 E57.12484
G1 X31.779 Y114.621 E57.13367
G1 X31.457 Y114.574 E57.14495
G1 X30.381 Y113.134 E57.20723
G1 X30.162 Y113.003 E57.21607
G1 X29.840 Y112.957 E57.22735
G1 X28.764 Y111.517 E57.28963
G1 X28.545 Y111.386 E57.29846
G1 X28.223 Y111.340 E57.30974
G1 X27.147 Y109.900 E57.37202
G1 X26.928 Y109.769 E57.38085
G1 X26.605 Y109.723 E57.39213
G1 X24.637 Y107.087 E57.50612
G1 X24.683 Y106.765 E57.51740
G1 X24.633 Y106.566 E57.52451
G1 X24.782 Y105.538 E57.56049
G1 X24.738 Y105.179 E57.57302
G1 X24.738 Y77.699 E58.52511
G1 X25.899 Y76.069 E58.59443
G1 E57.59443 F2400.00000
G92 E0
G1 X29.040 Y75.610 F6000.000
G1 E1.00000 F2400.00000
G1 X29.172 Y74.476 E1.03954 F2400.000
G1 X28.065 Y74.209 E1.07900
G1 X26.940 Y74.046 E1.11840
G1 X25.851 Y72.588 E1.18145
G1 X25.636 Y72.177 E1.19751
G1 X25.454 Y71.628 E1.21758
G1 X25.380 Y71.170 E1.23364
G1 X25.380 Y42.853 E2.21472
G1 X25.923 Y42.100 E2.24691
G1 X26.029 Y41.882 E2.25531
G1 X26.227 Y41.678 E2.26514
G1 X26.470 Y41.342 E2.27953
G1 X26.674 Y41.238 E2.28745
G1 X33.348 Y34.563 E2.61448
G1 X33.390 Y34.493 E2.61733
G1 X34.359 Y33.466 E2.66623
G1 X35.853 Y32.923 E2.72132
G1 X35.969 Y32.860 E2.72591
G1 X36.969 Y32.829 E2.76057
G1 X37.121 Y32.860 E2.76592
G1 X143.395 Y32.860 E6.44800
G1 X144.139 Y33.041 E6.47455
G1 X145.265 Y33.204 E6.51395
G1 X146.031 Y34.229 E6.55828
G1 X146.250 Y34.359 E6.56712
G1 X146.572 Y34.406 E6.57840
G1 X147.648 Y35.846 E6.64068
G1 X147.867 Y35.977 E6.64951
G1 X148.189 Y36.023 E6.66079
G1 X149.265 Y37.463 E6.72307
G1 X149.484 Y37.594 E6.73190
G1 X149.806 Y37.640 E6.74318
G1 X150.882 Y39.080 E6.80546
G1 X151.101 Y39.211 E6.81430
G1 X151.423 Y39.257 E6.82558
G1 X154.149 Y42.906 E6.98338
G1 X154.364 Y43.317 E6.99944
G1 X154.546 Y43.867 E7.01951
G1 X154.620 Y44.325 E7.03557
G1 X154.620 Y105.792 E9.16521
G1 X154.653 Y106.153 E9.17779
G1 X154.620 Y106.358 E9.18498
G1 X154.620 Y106.599 E9.19332
G1 X154.541 Y106.763 E9.19964
G1 X154.509 Y106.937 E9.20576
G1 X153.707 Y108.571 E9.26884
G1 X153.075 Y109.014 E9.29558
G1 X145.895 Y116.194 E9.64737
G1 X145.833 Y116.280 E9.65106
G1 X145.742 Y116.347 E9.65497
G1 X145.455 Y116.633 E9.66901
G1 X144.939 Y116.832 E9.68819
G1 X144.440 Y117.140 E9.70851
G1 X36.196 Y117.140 E13.45882
G1 X35.541 Y116.985 E13.48214
